;FLAVOR:Marlin
;TIME:3158
;Filament used: 4.26156m
;Layer height: 0.15
;Generated with Cura_SteamEngine 3.3.1
M190 S30
M104 S207
M109 S207
M82 ;absolute extrusion mode
G21 ;metric values
G90 ;absolute positioning
M82 ;set extruder to absolute mode
M107 ;start with the fan off
G28 X0 Y0 ;move X/Y to min endstops
G28 Z0 ;move Z to min endstops
G1 Z15.0 F9000 ;move the platform down 15mm
G92 E0 ;zero the extruded length
G1 F200 E3 ;extrude 3mm of feed stock
G92 E0 ;zero the extruded length again
G1 F9000
;Put printing message on LCD screen
M117 Printing...
G92 E0
G1 F1500 E-2.5
;LAYER_COUNT:234
;LAYER:-7
M107
G0 F7200 X78.898 Y79.245 Z0.36
G1 F1500 E0
G1 F1800 X79.291 Y78.852 E0.06655
G1 X79.719 Y78.443 E0.13743
G1 X80.058 Y78.13 E0.19268
G1 X80.552 Y77.688 E0.27205
G1 X80.97 Y77.33 E0.33795
G1 X81.509 Y76.89 E0.42126
G1 X81.882 Y76.597 E0.47805
G1 X82.578 Y76.074 E0.58229
G1 X83.259 Y75.59 E0.68233
G1 X83.734 Y75.272 E0.75077
G1 X84.601 Y74.724 E0.87358
G1 X84.998 Y74.498 E0.92828
G1 X85.317 Y74.301 E0.97317
G1 X85.676 Y74.099 E1.0225
G1 X86.239 Y73.796 E1.09905
G1 X86.676 Y73.572 E1.15785
G1 X87.575 Y73.137 E1.27743
G1 X88.331 Y72.8 E1.37654
G1 X88.735 Y72.63 E1.42902
G1 X89.093 Y72.494 E1.47487
G1 X89.347 Y72.386 E1.50792
G1 X89.813 Y72.212 E1.56748
G1 X90.218 Y72.074 E1.61871
G1 X90.424 Y71.994 E1.64517
G1 X90.87 Y71.846 E1.70144
G1 X91.225 Y71.743 E1.7457
G1 X91.489 Y71.653 E1.7791
G1 X91.855 Y71.545 E1.82479
G1 X92.373 Y71.404 E1.88907
G1 X92.485 Y71.38 E1.90278
G1 X92.609 Y71.341 E1.91835
G1 X93.565 Y71.11 E2.03611
G1 X94.648 Y70.891 E2.16841
G1 X95.207 Y70.793 E2.23636
G1 X95.795 Y70.702 E2.30761
G1 X96.195 Y70.649 E2.35592
G1 X96.521 Y70.616 E2.39515
G1 X96.998 Y70.555 E2.45273
G1 X97.403 Y70.516 E2.50145
G1 X98.078 Y70.464 E2.58251
G1 X98.652 Y70.433 E2.65134
G1 X99.262 Y70.412 E2.72442
G1 X99.753 Y70.403 E2.78322
G1 X100.328 Y70.403 E2.85207
G1 X100.774 Y70.412 E2.90549
G1 X100.948 Y70.423 E2.92636
G1 X101.495 Y70.44 E2.99189
G1 X101.934 Y70.466 E3.04455
G1 X102.447 Y70.513 E3.10623
G1 X102.675 Y70.524 E3.13356
G1 X103.051 Y70.56 E3.17879
G1 X104.224 Y70.705 E3.32031
G1 X104.692 Y70.785 E3.37716
G1 X104.971 Y70.824 E3.41089
G1 X105.429 Y70.905 E3.46658
G1 X105.862 Y70.997 E3.51958
G1 X106.055 Y71.029 E3.543
G1 X107.072 Y71.26 E3.66788
G1 X107.509 Y71.371 E3.72186
G1 X108.167 Y71.551 E3.80355
G1 X109.15 Y71.852 E3.92664
G1 X109.635 Y72.015 E3.98791
G1 X110.29 Y72.249 E4.07119
G1 X110.716 Y72.412 E4.1258
G1 X111.043 Y72.549 E4.16825
G1 X111.416 Y72.692 E4.21608
G1 X111.843 Y72.874 E4.27166
G1 X112.498 Y73.172 E4.35782
G1 X112.939 Y73.381 E4.41626
G1 X113.842 Y73.839 E4.53749
G1 X114.311 Y74.101 E4.60182
G1 X114.503 Y74.199 E4.62763
G1 X114.902 Y74.427 E4.68265
G1 X115.899 Y75.035 E4.82248
G1 X116.732 Y75.586 E4.94206
G1 X117.393 Y76.053 E5.03897
G1 X118.134 Y76.611 E5.15004
G1 X118.47 Y76.874 E5.20113
G1 X119.093 Y77.383 E5.29745
G1 X119.669 Y77.895 E5.38973
G1 X119.966 Y78.151 E5.43668
G1 X120.723 Y78.867 E5.56144
G1 X121.137 Y79.281 E5.63155
G1 X121.557 Y79.719 E5.70421
G1 X121.874 Y80.062 E5.76013
G1 X122.317 Y80.558 E5.83976
G1 X122.682 Y80.984 E5.90693
G1 X123.354 Y81.816 E6.03498
G1 X123.769 Y82.365 E6.11739
G1 X124.417 Y83.269 E6.25057
G1 X124.966 Y84.102 E6.37002
G1 X125.253 Y84.562 E6.43494
G1 X125.498 Y84.992 E6.4942
G1 X125.695 Y85.31 E6.53899
G1 X125.893 Y85.661 E6.58724
G1 X126.206 Y86.243 E6.66637
G1 X126.428 Y86.676 E6.72463
G1 X126.86 Y87.57 E6.84352
G1 X127.191 Y88.312 E6.9408
G1 X127.352 Y88.689 E6.98988
G1 X127.506 Y89.093 E7.04165
G1 X127.611 Y89.339 E7.07368
G1 X127.788 Y89.813 E7.13426
G1 X127.926 Y90.218 E7.18549
G1 X128.006 Y90.424 E7.21195
G1 X128.154 Y90.87 E7.26822
G1 X128.257 Y91.225 E7.31248
G1 X128.344 Y91.48 E7.34474
G1 X128.598 Y92.379 E7.4566
G1 X128.62 Y92.485 E7.46956
G1 X128.659 Y92.609 E7.48512
G1 X128.886 Y93.545 E7.60045
G1 X128.974 Y93.961 E7.65136
G1 X129.031 Y94.282 E7.6904
G1 X129.134 Y94.781 E7.7514
G1 X129.297 Y95.782 E7.87284
G1 X129.436 Y96.91 E8.00892
G1 X129.485 Y97.433 E8.07182
G1 X129.537 Y98.102 E8.15216
G1 X129.563 Y98.555 E8.20649
G1 X129.588 Y99.251 E8.28988
G1 X129.6 Y100.011 E8.3809
G1 X129.587 Y100.777 E8.47263
G1 X129.561 Y101.496 E8.55877
G1 X129.522 Y102.096 E8.63077
G1 X129.49 Y102.43 E8.67094
G1 X129.479 Y102.651 E8.69744
G1 X129.437 Y103.089 E8.75012
G1 X129.294 Y104.234 E8.88829
G1 X129.118 Y105.306 E9.01836
G1 X128.979 Y106.016 E9.10499
G1 X128.764 Y106.979 E9.22313
G1 X128.452 Y108.155 E9.36881
G1 X128.129 Y109.21 E9.50092
G1 X127.737 Y110.329 E9.64289
G1 X127.609 Y110.665 E9.68594
G1 X127.463 Y111.012 E9.73102
G1 X127.316 Y111.398 E9.78048
G1 X127.097 Y111.909 E9.84705
G1 X126.63 Y112.917 E9.98006
G1 X126.361 Y113.457 E10.0523
G1 X126.123 Y113.914 E10.114
G1 X125.895 Y114.319 E10.16964
G1 X125.804 Y114.497 E10.19358
G1 X125.569 Y114.907 E10.25017
G1 X124.967 Y115.895 E10.3887
G1 X124.691 Y116.322 E10.44957
G1 X124.349 Y116.826 E10.5225
G1 X123.78 Y117.62 E10.63947
G1 X123.559 Y117.902 E10.68236
G1 X123.308 Y118.242 E10.73297
G1 X122.62 Y119.089 E10.86362
G1 X122.367 Y119.384 E10.91016
G1 X122.105 Y119.669 E10.95651
G1 X121.849 Y119.966 E11.00346
G1 X121.102 Y120.755 E11.13356
G1 X120.709 Y121.148 E11.2001
G1 X120.281 Y121.557 E11.27099
G1 X119.427 Y122.33 E11.40891
G1 X119.017 Y122.681 E11.47354
G1 X118.183 Y123.355 E11.60193
G1 X117.949 Y123.526 E11.63663
G1 X117.63 Y123.773 E11.68494
G1 X116.768 Y124.391 E11.81194
G1 X116.245 Y124.743 E11.88742
G1 X115.89 Y124.972 E11.93801
G1 X115.328 Y125.319 E12.01709
G1 X114.989 Y125.508 E12.06356
G1 X114.686 Y125.696 E12.10626
G1 X114.341 Y125.891 E12.15371
G1 X113.772 Y126.198 E12.23113
G1 X113.324 Y126.428 E12.29142
G1 X112.426 Y126.862 E12.41085
G1 X111.669 Y127.2 E12.51011
G1 X111.265 Y127.37 E12.56259
G1 X110.907 Y127.506 E12.60845
G1 X110.653 Y127.614 E12.6415
G1 X110.187 Y127.788 E12.70106
G1 X109.782 Y127.926 E12.75229
G1 X109.575 Y128.006 E12.77886
G1 X109.189 Y128.136 E12.82763
G1 X108.775 Y128.257 E12.87927
G1 X108.511 Y128.347 E12.91267
G1 X108.145 Y128.455 E12.95836
G1 X107.627 Y128.596 E13.02264
G1 X107.515 Y128.62 E13.03636
G1 X107.391 Y128.659 E13.05192
G1 X106.435 Y128.89 E13.16968
G1 X106.037 Y128.975 E13.21841
G1 X105.73 Y129.029 E13.25574
G1 X105.318 Y129.116 E13.30616
G1 X104.768 Y129.211 E13.37299
G1 X104.226 Y129.295 E13.43866
G1 X103.812 Y129.352 E13.4887
G1 X103.473 Y129.385 E13.52948
G1 X103.01 Y129.445 E13.58538
G1 X101.951 Y129.534 E13.71263
G1 X101.348 Y129.567 E13.78494
G1 X100.738 Y129.588 E13.85802
G1 X100.247 Y129.597 E13.91682
G1 X99.672 Y129.597 E13.98567
G1 X99.226 Y129.588 E14.03908
G1 X99.052 Y129.577 E14.05996
G1 X98.505 Y129.56 E14.12549
G1 X98.067 Y129.534 E14.17802
G1 X97.553 Y129.487 E14.23982
G1 X97.325 Y129.476 E14.26715
G1 X96.883 Y129.433 E14.32033
G1 X96.518 Y129.385 E14.36441
G1 X96.195 Y129.353 E14.40327
G1 X95.741 Y129.29 E14.45815
G1 X95.297 Y129.214 E14.51209
G1 X94.695 Y129.118 E14.58508
G1 X93.952 Y128.972 E14.67575
G1 X93.005 Y128.759 E14.79197
G1 X92.446 Y128.617 E14.86103
G1 X91.839 Y128.45 E14.93641
G1 X90.892 Y128.161 E15.05496
G1 X90.278 Y127.954 E15.13255
G1 X89.298 Y127.595 E15.25751
G1 X88.957 Y127.451 E15.30184
G1 X88.584 Y127.308 E15.34967
G1 X88.157 Y127.126 E15.40525
G1 X87.049 Y126.613 E15.55144
G1 X86.527 Y126.353 E15.62127
G1 X86.079 Y126.119 E15.68179
G1 X85.681 Y125.895 E15.73647
G1 X85.497 Y125.801 E15.76121
G1 X85.066 Y125.554 E15.82069
G1 X84.654 Y125.299 E15.87871
G1 X84.464 Y125.192 E15.90482
G1 X83.679 Y124.691 E16.01632
G1 X83.223 Y124.384 E16.08214
G1 X82.359 Y123.764 E16.20948
G1 X82.098 Y123.56 E16.24914
G1 X81.793 Y123.336 E16.29445
G1 X80.898 Y122.61 E16.43244
G1 X80.613 Y122.364 E16.47752
G1 X80.304 Y122.081 E16.52769
G1 X80.002 Y121.819 E16.57556
G1 X79.24 Y121.096 E16.70133
G1 X78.843 Y120.699 E16.76856
G1 X78.152 Y119.966 E16.88918
G1 X77.955 Y119.737 E16.92535
G1 X77.639 Y119.391 E16.98145
G1 X77.281 Y118.97 E17.04762
G1 X76.631 Y118.163 E17.1717
G1 X76.396 Y117.842 E17.21933
G1 X76.198 Y117.592 E17.25752
G1 X75.613 Y116.772 E17.37812
G1 X75.009 Y115.859 E17.5092
G1 X74.719 Y115.391 E17.57512
G1 X74.498 Y115.002 E17.62869
G1 X74.301 Y114.683 E17.67359
G1 X73.786 Y113.742 E17.80203
G1 X73.556 Y113.293 E17.86243
G1 X73.42 Y113.003 E17.90079
G1 X73.301 Y112.774 E17.93169
G1 X73.131 Y112.413 E17.97946
G1 X72.812 Y111.696 E18.07343
G1 X72.621 Y111.24 E18.13262
G1 X72.487 Y110.887 E18.17783
G1 X72.373 Y110.62 E18.2126
G1 X72.203 Y110.162 E18.27109
G1 X72.072 Y109.777 E18.31979
G1 X71.994 Y109.576 E18.3456
G1 X71.828 Y109.07 E18.40936
G1 X71.741 Y108.769 E18.44688
G1 X71.652 Y108.508 E18.4799
G1 X71.521 Y108.061 E18.53567
G1 X71.364 Y107.482 E18.6075
G1 X71.228 Y106.941 E18.6743
G1 X71.112 Y106.447 E18.73505
G1 X71.024 Y106.022 E18.78702
G1 X70.969 Y105.718 E18.82401
G1 X70.868 Y105.232 E18.88345
G1 X70.692 Y104.131 E19.01695
G1 X70.647 Y103.787 E19.05849
G1 X70.614 Y103.464 E19.09737
G1 X70.555 Y103.007 E19.15254
G1 X70.514 Y102.578 E19.20414
G1 X70.462 Y101.889 E19.28688
G1 X70.433 Y101.372 E19.34888
G1 X70.412 Y100.738 E19.42483
G1 X70.4 Y99.989 E19.51453
G1 X70.413 Y99.221 E19.6065
G1 X70.438 Y98.54 E19.68809
G1 X70.479 Y97.89 E19.76608
G1 X70.51 Y97.571 E19.80445
G1 X70.521 Y97.349 E19.83107
G1 X70.563 Y96.911 E19.88375
G1 X70.631 Y96.363 E19.94987
G1 X70.644 Y96.216 E19.96754
G1 X70.71 Y95.733 E20.02591
G1 X70.785 Y95.302 E20.07829
G1 X70.882 Y94.693 E20.15213
G1 X71.02 Y93.986 E20.23838
G1 X71.122 Y93.513 E20.29632
G1 X71.266 Y92.905 E20.37113
G1 X71.551 Y91.834 E20.50383
G1 X71.871 Y90.79 E20.63458
G1 X72.276 Y89.637 E20.7809
G1 X72.391 Y89.335 E20.8196
G1 X72.537 Y88.988 E20.86467
G1 X72.689 Y88.591 E20.91557
G1 X72.875 Y88.157 E20.97211
G1 X73.171 Y87.502 E21.05817
G1 X73.372 Y87.079 E21.11425
G1 X73.877 Y86.086 E21.24764
G1 X74.11 Y85.673 E21.30442
G1 X74.191 Y85.511 E21.32611
G1 X74.431 Y85.093 E21.38382
G1 X75.033 Y84.105 E21.52235
G1 X75.275 Y83.73 E21.57579
G1 X75.651 Y83.174 E21.65616
G1 X76.215 Y82.387 E21.77209
G1 X76.443 Y82.096 E21.81635
G1 X76.692 Y81.758 E21.86662
G1 X77.376 Y80.915 E21.9966
G1 X77.672 Y80.575 E22.05058
G1 X77.895 Y80.331 E22.09016
G1 X78.151 Y80.034 E22.13711
G1 X78.898 Y79.245 E22.2672
G0 F7200 X78.4 Y79.771
G1 F1800 X78.4 Y120.229 E27.1115
G0 F7200 X80 Y121.817
G1 F1800 X80 Y78.183 E32.33609
G0 F7200 X81.6 Y76.818
G1 F1800 X81.6 Y123.179 E37.88719
G0 F7200 X83.2 Y124.367
G1 F1800 X83.2 Y75.631 E43.72267
G0 F7200 X84.8 Y74.61
G1 F1800 X84.8 Y125.389 E49.80277
G0 F7200 X86.4 Y126.286
G1 F1800 X86.4 Y73.713 E56.09767
G0 F7200 X88 Y72.947
G1 F1800 X88 Y127.053 E62.57613
G0 F7200 X89.6 Y127.705
G1 F1800 X89.6 Y72.291 E69.21121
G0 F7200 X91.2 Y71.75
G1 F1800 X91.2 Y128.254 E75.9768
G0 F7200 X92.8 Y128.706
G1 F1800 X92.8 Y71.294 E82.85111
G0 F7200 X94.4 Y70.941
G1 F1800 X94.4 Y129.06 E89.81008
G0 F7200 X96 Y129.325
G1 F1800 X96 Y70.674 E96.83274
G0 F7200 X97.6 Y70.5
G1 F1800 X97.6 Y129.491 E103.89612
G0 F7200 X99.2 Y129.586
G1 F1800 X99.2 Y70.414 E110.98116
G0 F7200 X100.8 Y70.414
G1 F1800 X100.8 Y129.586 E118.06621
G0 F7200 X102.4 Y129.497
G1 F1800 X102.4 Y70.509 E125.12923
G0 F7200 X104 Y70.678
G1 F1800 X104 Y129.327 E132.15165
G0 F7200 X105.6 Y129.057
G1 F1800 X105.6 Y70.942 E139.11014
G0 F7200 X107.2 Y71.293
G1 F1800 X107.2 Y128.706 E145.98457
G0 F7200 X108.8 Y128.25
G1 F1800 X108.8 Y71.745 E152.75028
G0 F7200 X110.4 Y72.292
G1 F1800 X110.4 Y127.709 E159.38572
G0 F7200 X112 Y127.053
G1 F1800 X112 Y72.946 E165.8643
G0 F7200 X113.6 Y73.717
G1 F1800 X113.6 Y126.287 E172.15885
G0 F7200 X115.2 Y125.391
G1 F1800 X115.2 Y74.609 E178.2393
G0 F7200 X116.8 Y75.635
G1 F1800 X116.8 Y124.369 E184.07454
G0 F7200 X118.4 Y123.18
G1 F1800 X118.4 Y76.82 E189.62553
G0 F7200 X120 Y78.184
G1 F1800 X120 Y121.812 E194.84939
G0 F7200 X121.6 Y120.229
G1 F1800 X121.6 Y79.766 E199.69429
G0 F7200 X123.2 Y81.626
G1 F1800 X123.2 Y118.375 E204.09448
G0 F7200 X124.8 Y116.154
G1 F1800 X124.8 Y83.851 E207.96233
G0 F7200 X126.4 Y86.622
G1 F1800 X126.4 Y113.379 E211.16612
G0 F7200 X128 Y109.579
G1 F1800 X128 Y90.409 E213.46147
G0 F7200 X76.8 Y81.624
G1 F1800 X76.8 Y118.372 E217.86154
G0 F7200 X75.2 Y116.147
G1 F1800 X75.2 Y83.846 E221.72915
G0 F7200 X73.6 Y86.63
G1 F1800 X73.6 Y113.378 E224.93186
G0 F7200 X72 Y109.591
G1 F1800 X72 Y90.422 E227.22709
G0 F7200 X75.327 Y116.339
;TIME_ELAPSED:73.774354
;LAYER:-6
M140 S30
G0 X75.327 Y116.339 Z0.584
;TYPE:SUPPORT
G1 F1800 X83.674 Y124.686 E228.10656
G1 X83.222 Y124.383 E228.1471
G1 X82.358 Y123.762 E228.22637
G1 X82.097 Y123.559 E228.251
G1 X81.793 Y123.335 E228.27914
G1 X80.897 Y122.608 E228.3651
G1 X80.613 Y122.363 E228.39305
G1 X80.303 Y122.079 E228.42437
G1 X80.001 Y121.818 E228.45411
G1 X79.239 Y121.094 E228.53242
G1 X78.843 Y120.698 E228.57414
G1 X78.152 Y119.964 E228.64925
G1 X77.954 Y119.736 E228.67174
G1 X77.638 Y119.39 E228.70665
G1 X77.281 Y118.969 E228.74778
G1 X76.631 Y118.162 E228.82498
G1 X76.396 Y117.841 E228.85462
G1 X76.198 Y117.591 E228.87838
G1 X75.613 Y116.77 E228.95348
G0 F7200 X83.679 Y124.689
G1 F1800 X84.463 Y125.191 E229.02284
G1 X84.654 Y125.298 E229.03915
G1 X85.065 Y125.553 E229.07519
G1 X85.496 Y125.8 E229.1122
G1 X85.68 Y125.893 E229.12756
G1 X86.078 Y126.118 E229.16162
G1 X86.526 Y126.352 E229.19928
G1 X86.978 Y126.576 E229.23686
G1 X73.433 Y113.031 E230.664
G1 X73.419 Y113.002 E230.6664
G1 X73.3 Y112.772 E230.68569
G1 X73.131 Y112.412 E230.71532
G1 X72.811 Y111.695 E230.77382
G1 X72.621 Y111.239 E230.81062
G1 X72.486 Y110.885 E230.83885
G1 X72.373 Y110.619 E230.86038
G1 X72.335 Y110.519 E230.86835
G1 X89.475 Y127.659 E232.67427
G1 X90.278 Y127.953 E232.73798
G1 X90.891 Y128.16 E232.78618
G1 X91.609 Y128.378 E232.84209
G1 X71.615 Y108.385 E234.94866
G1 X71.521 Y108.06 E234.97386
G1 X71.364 Y107.481 E235.01856
G1 X71.228 Y106.94 E235.06012
G1 X71.118 Y106.474 E235.09579
G1 X93.517 Y128.873 E237.45581
G1 X93.952 Y128.971 E237.48903
G1 X94.695 Y129.116 E237.54543
G1 X95.267 Y129.208 E237.58859
G1 X70.787 Y104.728 E240.16787
G1 X70.692 Y104.129 E240.21306
G1 X70.647 Y103.786 E240.23883
G1 X70.613 Y103.463 E240.26303
G1 X70.565 Y103.091 E240.29097
G1 X96.907 Y129.434 E243.06649
G1 X97.324 Y129.475 E243.09771
G1 X97.553 Y129.486 E243.11479
G1 X98.067 Y129.533 E243.15324
G1 X98.442 Y129.555 E243.18123
G1 X70.442 Y101.555 E246.13139
G1 X70.432 Y101.371 E246.14511
G1 X70.412 Y100.737 E246.19237
G1 X70.401 Y100.1 E246.23984
G1 X99.897 Y129.596 E249.34762
G1 X100.247 Y129.596 E249.37369
G1 X100.737 Y129.587 E249.41021
G1 X101.283 Y129.568 E249.45091
G1 X70.43 Y98.714 E252.70172
G1 X70.437 Y98.539 E252.71477
G1 X70.478 Y97.889 E252.76329
G1 X70.509 Y97.57 E252.78717
G1 X70.519 Y97.389 E252.80067
G1 X102.607 Y129.477 E256.18155
G1 X103.009 Y129.444 E256.2116
G1 X103.473 Y129.384 E256.24646
G1 X103.811 Y129.351 E256.27176
G1 X103.884 Y129.34 E256.27726
G1 X70.656 Y96.112 E259.77825
G1 X70.709 Y95.731 E259.80691
G1 X70.784 Y95.301 E259.83943
G1 X70.849 Y94.891 E259.87036
G1 X105.109 Y129.15 E263.48004
G1 X105.317 Y129.114 E263.49576
G1 X105.73 Y129.027 E263.52721
G1 X106.037 Y128.974 E263.55042
G1 X106.291 Y128.919 E263.56978
G1 X71.079 Y93.707 E267.27981
G1 X71.122 Y93.512 E267.29469
G1 X71.265 Y92.904 E267.34122
G1 X71.354 Y92.568 E267.36712
G1 X107.431 Y128.644 E271.16824
G1 X107.514 Y128.619 E271.1747
G1 X107.626 Y128.595 E271.18323
G1 X108.144 Y128.454 E271.22323
G1 X108.51 Y128.346 E271.25166
G1 X108.537 Y128.336 E271.2538
G1 X71.663 Y91.462 E275.13895
G1 X71.871 Y90.788 E275.1915
G1 X72.008 Y90.393 E275.22265
G1 X109.607 Y127.992 E279.18418
G1 X109.781 Y127.924 E279.1981
G1 X110.187 Y127.786 E279.23005
G1 X110.645 Y127.615 E279.26647
G1 X72.382 Y89.353 E283.29791
G1 X72.39 Y89.334 E283.29945
G1 X72.537 Y88.987 E283.32752
G1 X72.689 Y88.59 E283.3592
G1 X72.791 Y88.348 E283.37876
G1 X111.65 Y127.206 E287.473
G1 X111.668 Y127.199 E287.47444
G1 X112.426 Y126.861 E287.53627
G1 X112.623 Y126.765 E287.5526
G1 X73.23 Y87.372 E291.70315
G1 X73.371 Y87.078 E291.72744
G1 X73.701 Y86.428 E291.78175
G1 X113.571 Y126.299 E295.98262
G1 X113.772 Y126.197 E295.99941
G1 X114.34 Y125.89 E296.04752
G1 X114.491 Y125.804 E296.06046
