;FLAVOR:Marlin
;TIME:1953
;Filament used: 1.85444m
;Layer height: 0.15
;Generated with Cura_SteamEngine 3.3.1
M190 S30
M104 S207
M109 S207
M82 ;absolute extrusion mode
G21 ;metric values
G90 ;absolute positioning
M82 ;set extruder to absolute mode
M107 ;start with the fan off
G28 X0 Y0 ;move X/Y to min endstops
G28 Z0 ;move Z to min endstops
G1 Z15.0 F9000 ;move the platform down 15mm
G92 E0 ;zero the extruded length
G1 F200 E3 ;extrude 3mm of feed stock
G92 E0 ;zero the extruded length again
G1 F9000
;Put printing message on LCD screen
M117 Printing...
G92 E0
G1 F1500 E-2.5
;LAYER_COUNT:234
;LAYER:0
M107
G0 F3600 X83.85 Y85.401 Z0.3
;TYPE:SKIRT
G1 F1500 E0
G1 F2400 X85.436 Y83.818 E0.1118
G1 X86.197 Y83.164 E0.16186
G1 X87.967 Y81.855 E0.27169
G1 X88.71 Y81.377 E0.31576
G1 X90.171 Y80.566 E0.39913
G1 X90.91 Y80.212 E0.44001
G1 X92.671 Y79.496 E0.53485
G1 X93.427 Y79.239 E0.57469
G1 X95.018 Y78.801 E0.65702
G1 X95.79 Y78.636 E0.6964
G1 X97.599 Y78.358 E0.78771
G1 X98.532 Y78.28 E0.83442
G1 X100.845 Y78.246 E0.94983
G1 X101.582 Y78.275 E0.98663
G1 X101.997 Y78.327 E1.00749
G1 X104.712 Y78.752 E1.1446
G1 X105.577 Y78.946 E1.18882
G1 X106.7 Y79.276 E1.24722
G1 X107.425 Y79.534 E1.28561
G1 X109.493 Y80.406 E1.39758
G1 X110.292 Y80.807 E1.44218
G1 X111.715 Y81.642 E1.5245
G1 X112.478 Y82.162 E1.57056
G1 X114.389 Y83.665 E1.69186
G1 X115.191 Y84.408 E1.7464
G1 X116.82 Y86.18 E1.86649
G1 X117.468 Y87.004 E1.91878
G1 X118.677 Y88.813 E2.02734
G1 X119.169 Y89.681 E2.07711
G1 X120.141 Y91.734 E2.19044
G1 X120.513 Y92.706 E2.24236
G1 X121.161 Y94.886 E2.35583
G1 X121.364 Y95.79 E2.40205
G1 X121.642 Y97.597 E2.49326
G1 X121.72 Y98.531 E2.54002
G1 X121.754 Y100.844 E2.65543
G1 X121.69 Y101.882 E2.70731
G1 X121.378 Y104.121 E2.8201
G1 X121.198 Y104.993 E2.86452
G1 X120.76 Y106.579 E2.94661
G1 X120.471 Y107.41 E2.9905
G1 X119.593 Y109.493 E3.10328
G1 X119.227 Y110.233 E3.14446
G1 X118.556 Y111.404 E3.2118
G1 X118.117 Y112.075 E3.2518
G1 X116.817 Y113.827 E3.36064
G1 X116.163 Y114.585 E3.41059
G1 X114.573 Y116.174 E3.52274
G1 X113.81 Y116.83 E3.57294
G1 X112.034 Y118.144 E3.68316
G1 X111.337 Y118.597 E3.72463
G1 X110.101 Y119.296 E3.79547
G1 X109.507 Y119.595 E3.82865
G1 X108.102 Y120.217 E3.90531
G1 X107.282 Y120.518 E3.94889
G1 X105.11 Y121.162 E4.06191
G1 X104.21 Y121.364 E4.10793
G1 X102.401 Y121.642 E4.19924
G1 X101.468 Y121.72 E4.24595
G1 X99.155 Y121.754 E4.36136
G1 X98.418 Y121.725 E4.39816
G1 X98.003 Y121.673 E4.41902
G1 X95.288 Y121.248 E4.55613
G1 X94.423 Y121.054 E4.60035
G1 X93.3 Y120.724 E4.65875
G1 X92.575 Y120.466 E4.69714
G1 X90.507 Y119.594 E4.80911
G1 X89.708 Y119.193 E4.85371
G1 X88.285 Y118.358 E4.93603
G1 X87.746 Y118.006 E4.96814
G1 X86.757 Y117.292 E5.029
G1 X86.116 Y116.768 E5.0703
G1 X84.354 Y115.136 E5.19012
G1 X83.678 Y114.412 E5.23954
G1 X82.364 Y112.78 E5.34407
G1 X81.774 Y111.918 E5.39619
G1 X80.618 Y109.918 E5.51144
G1 X80.206 Y109.077 E5.55816
G1 X79.495 Y107.329 E5.65231
G1 X79.197 Y106.416 E5.70022
G1 X78.621 Y104.112 E5.8187
G1 X78.458 Y103.203 E5.86478
G1 X78.277 Y101.549 E5.94779
G1 X78.238 Y100.68 E5.99119
G1 X78.279 Y98.511 E6.09942
G1 X78.356 Y97.611 E6.14448
G1 X78.635 Y95.788 E6.23649
G1 X78.803 Y95.004 E6.27649
G1 X79.246 Y93.403 E6.35937
G1 X79.535 Y92.571 E6.40331
G1 X80.408 Y90.503 E6.5153
G1 X80.773 Y89.767 E6.55629
G1 X81.444 Y88.596 E6.62362
G1 X81.886 Y87.921 E6.66387
G1 X83.196 Y86.158 E6.77345
G1 X83.85 Y85.401 E6.82336
G0 F3600 X84.133 Y85.684
G1 F2400 X85.719 Y84.101 E6.93516
G1 X86.435 Y83.485 E6.98228
G1 X88.205 Y82.176 E7.09211
G1 X88.904 Y81.726 E7.13359
G1 X90.365 Y80.915 E7.21695
G1 X91.06 Y80.582 E7.2554
G1 X92.821 Y79.866 E7.35024
G1 X93.533 Y79.625 E7.38774
G1 X95.124 Y79.187 E7.47007
G1 X95.851 Y79.031 E7.50717
G1 X97.66 Y78.753 E7.59848
G1 X98.538 Y78.68 E7.64243
G1 X100.851 Y78.646 E7.75784
G1 X101.566 Y78.675 E7.79354
G1 X101.935 Y78.722 E7.8121
G1 X104.65 Y79.147 E7.9492
G1 X105.464 Y79.33 E7.99083
G1 X106.587 Y79.66 E8.04922
G1 X107.27 Y79.903 E8.08539
G1 X109.338 Y80.775 E8.19736
G1 X110.09 Y81.152 E8.23933
G1 X111.513 Y81.987 E8.32164
G1 X112.23 Y82.476 E8.36494
G1 X114.141 Y83.979 E8.48623
G1 X114.897 Y84.679 E8.53764
G1 X116.526 Y86.451 E8.65772
G1 X117.135 Y87.226 E8.7069
G1 X118.344 Y89.035 E8.81545
G1 X118.807 Y89.852 E8.8623
G1 X119.779 Y91.905 E8.97562
G1 X120.13 Y92.82 E9.02452
G1 X120.778 Y95 E9.13798
G1 X120.969 Y95.851 E9.18149
G1 X121.247 Y97.658 E9.2727
G1 X121.32 Y98.537 E9.31671
G1 X121.354 Y100.85 E9.43212
G1 X121.294 Y101.827 E9.48095
G1 X120.982 Y104.066 E9.59374
G1 X120.812 Y104.887 E9.63556
G1 X120.374 Y106.473 E9.71765
G1 X120.103 Y107.255 E9.75894
G1 X119.225 Y109.338 E9.87172
G1 X118.88 Y110.034 E9.91047
G1 X118.209 Y111.205 E9.97781
G1 X117.796 Y111.837 E10.01547
G1 X116.496 Y113.589 E10.12432
G1 X115.88 Y114.302 E10.17132
G1 X114.29 Y115.891 E10.28347
G1 X113.573 Y116.509 E10.3307
G1 X111.797 Y117.823 E10.44092
G1 X111.141 Y118.249 E10.47994
G1 X109.905 Y118.948 E10.55078
G1 X109.345 Y119.229 E10.58204
G1 X107.94 Y119.851 E10.6587
G1 X107.168 Y120.135 E10.69974
G1 X104.996 Y120.779 E10.81276
G1 X104.149 Y120.969 E10.85607
G1 X102.34 Y121.247 E10.94738
G1 X101.462 Y121.32 E10.99133
G1 X99.149 Y121.354 E11.10674
G1 X98.434 Y121.325 E11.14244
G1 X98.065 Y121.278 E11.161
G1 X95.35 Y120.853 E11.2981
G1 X94.536 Y120.67 E11.33973
G1 X93.413 Y120.34 E11.39812
G1 X92.73 Y120.097 E11.43429
G1 X90.662 Y119.225 E11.54626
G1 X89.91 Y118.848 E11.58823
G1 X88.487 Y118.013 E11.67054
G1 X87.98 Y117.682 E11.70075
G1 X86.991 Y116.968 E11.76161
G1 X86.388 Y116.474 E11.8005
G1 X84.626 Y114.842 E11.92032
G1 X83.99 Y114.161 E11.9668
G1 X82.676 Y112.529 E12.07134
G1 X82.12 Y111.718 E12.12039
G1 X80.964 Y109.718 E12.23564
G1 X80.577 Y108.926 E12.27962
G1 X79.866 Y107.178 E12.37377
G1 X79.585 Y106.319 E12.41886
G1 X79.009 Y104.015 E12.53734
G1 X78.856 Y103.159 E12.58072
G1 X78.675 Y101.505 E12.66373
G1 X78.638 Y100.688 E12.70454
G1 X78.679 Y98.519 E12.81277
G1 X78.752 Y97.672 E12.85518
G1 X79.031 Y95.849 E12.94719
G1 X79.189 Y95.11 E12.98489
G1 X79.632 Y93.509 E13.06777
G1 X79.904 Y92.727 E13.10907
G1 X80.777 Y90.659 E13.22106
G1 X81.12 Y89.966 E13.25964
G1 X81.791 Y88.795 E13.32697
G1 X82.207 Y88.16 E13.36485
G1 X83.517 Y86.397 E13.47443
G1 X84.133 Y85.684 E13.52144
G0 F3600 X84.415 Y85.967
G1 F2400 X86.001 Y84.384 E13.63323
G1 X86.672 Y83.807 E13.67738
G1 X88.442 Y82.498 E13.78721
G1 X89.098 Y82.076 E13.82613
G1 X90.559 Y81.265 E13.90949
G1 X91.211 Y80.953 E13.94556
G1 X92.972 Y80.237 E14.0404
G1 X93.639 Y80.01 E14.07555
G1 X95.23 Y79.572 E14.15788
G1 X95.912 Y79.427 E14.19266
G1 X97.721 Y79.149 E14.28397
G1 X98.544 Y79.08 E14.32518
G1 X100.857 Y79.046 E14.44058
G1 X101.873 Y79.117 E14.4914
G1 X104.588 Y79.542 E14.6285
G1 X105.352 Y79.713 E14.66756
G1 X106.475 Y80.043 E14.72595
G1 X107.114 Y80.271 E14.7598
G1 X109.182 Y81.143 E14.87177
G1 X109.888 Y81.497 E14.91117
G1 X111.311 Y82.332 E14.99349
G1 X111.983 Y82.791 E15.03409
G1 X113.894 Y84.294 E15.15538
G1 X114.602 Y84.949 E15.2035
G1 X116.231 Y86.721 E15.32359
G1 X116.802 Y87.448 E15.36971
G1 X118.011 Y89.257 E15.47826
G1 X118.446 Y90.024 E15.52225
G1 X119.418 Y92.077 E15.63558
G1 X119.746 Y92.934 E15.68136
G1 X120.394 Y95.114 E15.79482
G1 X120.573 Y95.912 E15.83562
G1 X120.851 Y97.719 E15.92683
G1 X120.92 Y98.543 E15.96809
G1 X120.954 Y100.856 E16.0835
G1 X120.898 Y101.772 E16.12928
G1 X120.586 Y104.011 E16.24206
G1 X120.427 Y104.78 E16.28124
G1 X119.989 Y106.366 E16.36333
G1 X119.734 Y107.099 E16.40205
G1 X118.856 Y109.182 E16.51482
G1 X118.533 Y109.835 E16.55117
G1 X117.862 Y111.006 E16.6185
G1 X117.474 Y111.598 E16.65382
G1 X116.174 Y113.35 E16.76266
G1 X115.597 Y114.019 E16.80673
G1 X114.007 Y115.608 E16.91888
G1 X113.335 Y116.187 E16.96314
G1 X111.559 Y117.501 E17.07336
G1 X110.944 Y117.901 E17.10996
G1 X109.708 Y118.6 E17.1808
G1 X109.183 Y118.863 E17.21009
G1 X107.778 Y119.485 E17.28675
G1 X107.055 Y119.751 E17.32519
G1 X104.883 Y120.395 E17.43821
G1 X104.088 Y120.573 E17.47885
G1 X102.279 Y120.851 E17.57017
G1 X101.456 Y120.92 E17.61137
G1 X99.143 Y120.954 E17.72678
G1 X98.127 Y120.883 E17.77759
G1 X95.412 Y120.458 E17.91469
G1 X94.648 Y120.287 E17.95375
G1 X93.525 Y119.957 E18.01215
G1 X92.886 Y119.729 E18.04599
G1 X90.818 Y118.857 E18.15796
G1 X90.112 Y118.503 E18.19737
G1 X88.689 Y117.668 E18.27968
G1 X88.214 Y117.358 E18.30798
G1 X87.225 Y116.644 E18.36883
G1 X86.66 Y116.181 E18.40528
G1 X84.898 Y114.549 E18.5251
G1 X84.302 Y113.91 E18.56869
G1 X82.988 Y112.278 E18.67322
G1 X82.466 Y111.518 E18.71922
G1 X81.31 Y109.518 E18.83447
G1 X80.947 Y108.776 E18.87568
G1 X80.236 Y107.028 E18.96983
G1 X79.973 Y106.222 E19.01213
G1 X79.397 Y103.918 E19.13061
G1 X79.254 Y103.116 E19.17126
G1 X79.073 Y101.462 E19.25427
G1 X79.038 Y100.696 E19.29252
G1 X79.079 Y98.527 E19.40075
G1 X79.147 Y97.732 E19.44056
G1 X79.426 Y95.909 E19.53257
G1 X79.574 Y95.217 E19.56787
G1 X80.017 Y93.616 E19.65075
G1 X80.272 Y92.883 E19.68947
G1 X81.145 Y90.815 E19.80146
G1 X81.467 Y90.165 E19.83765
G1 X82.138 Y88.994 E19.90498
G1 X82.528 Y88.398 E19.94052
G1 X83.838 Y86.635 E20.0501
G1 X84.415 Y85.967 E20.09413
G0 F3600 X84.698 Y86.25
G1 F2400 X86.284 Y84.667 E20.20593
G1 X86.91 Y84.129 E20.24711
G1 X88.68 Y82.82 E20.35694
G1 X89.292 Y82.426 E20.39325
G1 X90.753 Y81.615 E20.47662
G1 X91.362 Y81.323 E20.51032
G1 X93.123 Y80.607 E20.60516
G1 X93.746 Y80.396 E20.63797
G1 X95.337 Y79.958 E20.7203
G1 X95.972 Y79.822 E20.7527
G1 X97.781 Y79.544 E20.84401
G1 X98.55 Y79.48 E20.88251
G1 X100.863 Y79.446 E20.99792
G1 X101.811 Y79.512 E21.04533
G1 X104.526 Y79.937 E21.18243
G1 X105.239 Y80.097 E21.21888
G1 X106.362 Y80.427 E21.27728
G1 X106.959 Y80.64 E21.3089
G1 X109.027 Y81.512 E21.42087
G1 X109.685 Y81.842 E21.4576
G1 X111.108 Y82.677 E21.53991
G1 X111.736 Y83.105 E21.57783
G1 X113.647 Y84.608 E21.69912
G1 X114.308 Y85.22 E21.74406
G1 X115.937 Y86.992 E21.86415
G1 X116.47 Y87.67 E21.90718
G1 X117.679 Y89.479 E22.01573
G1 X118.084 Y90.195 E22.05677
G1 X119.056 Y92.248 E22.17009
G1 X119.363 Y93.048 E22.21284
G1 X120.011 Y95.228 E22.32631
G1 X120.178 Y95.972 E22.36435
G1 X120.456 Y97.779 E22.45556
G1 X120.52 Y98.549 E22.49411
G1 X120.554 Y100.862 E22.60952
G1 X120.501 Y101.717 E22.65225
G1 X120.189 Y103.956 E22.76504
G1 X120.041 Y104.674 E22.80161
G1 X119.603 Y106.26 E22.8837
G1 X119.365 Y106.944 E22.91983
G1 X118.487 Y109.027 E23.03261
G1 X118.186 Y109.636 E23.0665
G1 X117.515 Y110.807 E23.13383
G1 X117.153 Y111.36 E23.16681
G1 X115.853 Y113.112 E23.27565
G1 X115.315 Y113.736 E23.31675
G1 X113.725 Y115.325 E23.4289
G1 X113.097 Y115.866 E23.47026
G1 X111.321 Y117.18 E23.58048
G1 X110.747 Y117.552 E23.6146
G1 X109.511 Y118.251 E23.68544
G1 X109.021 Y118.498 E23.71282
G1 X107.616 Y119.12 E23.78948
G1 X106.941 Y119.368 E23.82535
G1 X104.769 Y120.012 E23.93838
G1 X104.028 Y120.178 E23.97626
G1 X102.219 Y120.456 E24.06757
G1 X101.45 Y120.52 E24.10607
G1 X99.137 Y120.554 E24.22148
G1 X98.189 Y120.488 E24.26889
G1 X95.474 Y120.063 E24.40599
G1 X94.761 Y119.903 E24.44245
G1 X93.638 Y119.573 E24.50084
G1 X93.041 Y119.36 E24.53247
G1 X90.973 Y118.488 E24.64444
G1 X90.315 Y118.158 E24.68116
G1 X88.892 Y117.323 E24.76348
G1 X88.448 Y117.033 E24.78993
G1 X87.459 Y116.319 E24.85079
G1 X86.932 Y115.887 E24.88479
G1 X85.17 Y114.255 E25.00461
G1 X84.613 Y113.659 E25.04531
G1 X83.299 Y112.027 E25.14984
G1 X82.813 Y111.317 E25.19276
G1 X81.657 Y109.317 E25.30801
G1 X81.318 Y108.625 E25.34646
G1 X80.607 Y106.877 E25.4406
G1 X80.361 Y106.125 E25.48008
G1 X79.785 Y103.821 E25.59856
G1 X79.651 Y103.072 E25.63652
G1 X79.47 Y101.418 E25.71953
G1 X79.438 Y100.703 E25.75524
G1 X79.479 Y98.534 E25.86347
G1 X79.542 Y97.793 E25.90057
G1 X79.821 Y95.97 E25.99258
G1 X79.96 Y95.324 E26.02555
G1 X80.403 Y93.723 E26.10842
G1 X80.641 Y93.038 E26.1446
G1 X81.514 Y90.97 E26.25659
G1 X81.814 Y90.364 E26.29033
G1 X82.485 Y89.193 E26.35766
G1 X82.849 Y88.637 E26.39082
G1 X84.159 Y86.874 E26.5004
G1 X84.698 Y86.25 E26.54153
G0 F3600 X84.981 Y86.534
G1 F2400 X86.567 Y84.951 E26.65333
G1 X87.148 Y84.45 E26.6916
G1 X88.918 Y83.141 E26.80143
G1 X89.486 Y82.776 E26.83512
G1 X90.947 Y81.965 E26.91848
G1 X91.512 Y81.694 E26.94975
G1 X93.273 Y80.978 E27.04459
G1 X93.852 Y80.782 E27.07508
G1 X95.443 Y80.344 E27.15741
G1 X96.033 Y80.217 E27.18752
G1 X97.842 Y79.939 E27.27883
G1 X98.556 Y79.88 E27.31458
G1 X100.869 Y79.846 E27.42998
G1 X101.749 Y79.908 E27.474
G1 X104.464 Y80.333 E27.6111
G1 X105.126 Y80.481 E27.64494
G1 X106.249 Y80.811 E27.70334
G1 X106.803 Y81.009 E27.73269
G1 X108.871 Y81.881 E27.84466
G1 X109.483 Y82.187 E27.87879
G1 X110.906 Y83.022 E27.96111
G1 X111.489 Y83.42 E27.99633
G1 X113.4 Y84.923 E28.11762
G1 X114.013 Y85.491 E28.15931
G1 X115.642 Y87.263 E28.2794
G1 X116.137 Y87.893 E28.31937
G1 X117.346 Y89.702 E28.42792
G1 X117.723 Y90.366 E28.46602
G1 X118.695 Y92.419 E28.57934
G1 X118.979 Y93.162 E28.61903
G1 X119.627 Y95.342 E28.73249
G1 X119.783 Y96.033 E28.76783
G1 X120.061 Y97.84 E28.85904
G1 X120.12 Y98.555 E28.89484
G1 X120.154 Y100.868 E29.01024
G1 X120.105 Y101.662 E29.04993
G1 X119.793 Y103.901 E29.16272
G1 X119.655 Y104.567 E29.19665
G1 X119.217 Y106.153 E29.27874
G1 X118.997 Y106.789 E29.31231
G1 X118.119 Y108.872 E29.42509
G1 X117.839 Y109.437 E29.45655
G1 X117.168 Y110.608 E29.52388
G1 X116.832 Y111.122 E29.55452
G1 X115.532 Y112.874 E29.66336
G1 X115.032 Y113.453 E29.70152
G1 X113.442 Y115.042 E29.81367
G1 X112.859 Y115.544 E29.85206
G1 X111.083 Y116.858 E29.96228
G1 X110.55 Y117.204 E29.99398
G1 X109.314 Y117.903 E30.06482
G1 X108.859 Y118.132 E30.09023
G1 X107.454 Y118.754 E30.16689
G1 X106.827 Y118.984 E30.20021
G1 X104.655 Y119.628 E30.31323
G1 X103.967 Y119.783 E30.34842
G1 X102.158 Y120.061 E30.43973
G1 X101.444 Y120.12 E30.47547
G1 X99.131 Y120.154 E30.59088
G1 X98.251 Y120.092 E30.63489
G1 X95.536 Y119.667 E30.772
G1 X94.874 Y119.519 E30.80584
G1 X93.751 Y119.189 E30.86423
G1 X93.197 Y118.991 E30.89359
G1 X91.129 Y118.119 E31.00556
G1 X90.517 Y117.813 E31.03969
G1 X89.094 Y116.978 E31.12201
G1 X88.682 Y116.709 E31.14655
G1 X87.693 Y115.995 E31.20741
G1 X87.203 Y115.594 E31.239
G1 X85.441 Y113.962 E31.35882
G1 X84.925 Y113.408 E31.39659
G1 X83.611 Y111.776 E31.50112
G1 X83.159 Y111.117 E31.54099
G1 X82.003 Y109.117 E31.65624
G1 X81.688 Y108.474 E31.69196
G1 X80.977 Y106.726 E31.78611
G1 X80.749 Y106.028 E31.82274
G1 X80.173 Y103.724 E31.94123
G1 X80.049 Y103.029 E31.97645
G1 X79.868 Y101.375 E32.05946
G1 X79.838 Y100.711 E32.09262
G1 X79.879 Y98.542 E32.20085
G1 X79.938 Y97.853 E32.23535
G1 X80.217 Y96.03 E32.32736
G1 X80.345 Y95.43 E32.35797
G1 X80.788 Y93.829 E32.44084
G1 X81.009 Y93.194 E32.47439
G1 X81.882 Y91.126 E32.58638
G1 X82.161 Y90.563 E32.61772
G1 X82.832 Y89.392 E32.68506
G1 X83.17 Y88.876 E32.71583
G1 X84.48 Y87.113 E32.82541
G1 X84.981 Y86.534 E32.86361
G0 F3600 X85.263 Y86.817
G1 F2400 X86.849 Y85.234 E32.97541
G1 X87.386 Y84.772 E33.01075
G1 X89.156 Y83.463 E33.12058
G1 X89.68 Y83.125 E33.15169
G1 X91.141 Y82.314 E33.23505
G1 X91.663 Y82.064 E33.26393
G1 X93.424 Y81.348 E33.35877
G1 X93.958 Y81.167 E33.3869
G1 X95.549 Y80.729 E33.46923
G1 X96.094 Y80.613 E33.49703
G1 X97.903 Y80.335 E33.58834
G1 X98.561 Y80.28 E33.62128
G1 X100.874 Y80.246 E33.73669
G1 X101.687 Y80.303 E33.77735
G1 X104.402 Y80.728 E33.91445
G1 X105.013 Y80.865 E33.94569
G1 X106.136 Y81.195 E34.00409
G1 X106.648 Y81.377 E34.0312
G1 X108.716 Y82.249 E34.14317
G1 X109.28 Y82.532 E34.17465
G1 X110.703 Y83.367 E34.25696
G1 X111.241 Y83.734 E34.28945
G1 X113.152 Y85.237 E34.41075
G1 X113.719 Y85.761 E34.44927
G1 X115.348 Y87.533 E34.56935
G1 X115.805 Y88.115 E34.60627
G1 X117.014 Y89.924 E34.71482
G1 X117.361 Y90.537 E34.74996
G1 X118.333 Y92.59 E34.86329
G1 X118.596 Y93.276 E34.89994
G1 X119.244 Y95.456 E35.0134
G1 X119.387 Y96.094 E35.04602
G1 X119.665 Y97.901 E35.13724
G1 X119.72 Y98.56 E35.17023
G1 X119.754 Y100.873 E35.28564
G1 X119.709 Y101.606 E35.32228
G1 X119.397 Y103.845 E35.43506
G1 X119.27 Y104.461 E35.46644
G1 X118.832 Y106.047 E35.54853
G1 X118.628 Y106.633 E35.57948
G1 X117.75 Y108.716 E35.69226
G1 X117.492 Y109.238 E35.72131
