;FLAVOR:Marlin
;TIME:270
;Filament used: 0.278756m
;Layer height: 0.15
;Generated with Cura_SteamEngine 3.3.1
M190 S30
M104 S207
M109 S207
M82 ;absolute extrusion mode
G21 ;metric values
G90 ;absolute positioning
M82 ;set extruder to absolute mode
M107 ;start with the fan off
G28 X0 Y0 ;move X/Y to min endstops
G28 Z0 ;move Z to min endstops
G1 Z15.0 F9000 ;move the platform down 15mm
G92 E0 ;zero the extruded length
G1 F200 E3 ;extrude 3mm of feed stock
G92 E0 ;zero the extruded length again
G1 F9000
;Put printing message on LCD screen
M117 Printing...
G92 E0
G1 F1500 E-2.5
;LAYER_COUNT:33
;LAYER:0
M107
G0 F3600 X88.326 Y89.079 Z0.3
;TYPE:SKIRT
G1 F1500 E0
G1 F2400 X89.229 Y88.184 E0.06343
G1 X89.964 Y87.553 E0.11176
G1 X90.995 Y86.788 E0.17581
G1 X91.844 Y86.25 E0.22595
G1 X93.067 Y85.597 E0.29512
G1 X93.978 Y85.194 E0.34482
G1 X95.26 Y84.735 E0.41276
G1 X96.136 Y84.486 E0.45819
G1 X97.207 Y84.258 E0.51282
G1 X98.029 Y84.135 E0.55429
G1 X99.18 Y84.034 E0.61193
G1 X100.135 Y84.018 E0.65958
G1 X101.621 Y84.097 E0.73382
G1 X102.701 Y84.241 E0.78818
G1 X103.974 Y84.517 E0.85317
G1 X104.833 Y84.764 E0.89776
G1 X106.063 Y85.206 E0.96297
G1 X107.053 Y85.654 E1.01718
G1 X108.361 Y86.377 E1.09174
G1 X109.176 Y86.906 E1.14022
G1 X110.094 Y87.601 E1.19766
G1 X110.809 Y88.227 E1.24507
G1 X111.822 Y89.245 E1.31672
G1 X112.478 Y90.009 E1.36696
G1 X113.249 Y91.056 E1.43183
G1 X113.697 Y91.75 E1.47304
G1 X114.181 Y92.609 E1.52223
G1 X114.523 Y93.306 E1.56097
G1 X114.904 Y94.21 E1.60991
G1 X115.194 Y95.047 E1.6541
G1 X115.59 Y96.486 E1.72856
G1 X115.77 Y97.362 E1.77318
G1 X115.899 Y98.298 E1.82032
G1 X115.963 Y99.175 E1.86419
G1 X115.974 Y100.628 E1.93668
G1 X115.939 Y101.364 E1.97344
G1 X115.883 Y101.789 E1.99483
G1 X115.617 Y103.397 E2.07614
G1 X115.457 Y104.117 E2.11294
G1 X115.297 Y104.614 E2.13899
G1 X114.679 Y106.311 E2.22909
G1 X114.39 Y106.989 E2.26586
G1 X114.209 Y107.332 E2.28521
G1 X113.619 Y108.375 E2.34499
G1 X113.13 Y109.12 E2.38945
G1 X112.411 Y110.074 E2.44905
G1 X111.892 Y110.684 E2.48901
G1 X111.123 Y111.487 E2.54448
G1 X110.614 Y111.967 E2.57939
G1 X110.11 Y112.395 E2.61237
G1 X109.42 Y112.909 E2.6553
G1 X108.031 Y113.814 E2.73801
G1 X107.392 Y114.183 E2.77482
G1 X106.843 Y114.431 E2.80488
G1 X104.997 Y115.169 E2.90406
G1 X104.033 Y115.474 E2.9545
G1 X103.282 Y115.651 E2.993
G1 X102.474 Y115.79 E3.0339
G1 X101.028 Y115.951 E3.10649
G1 X100.001 Y115.987 E3.15776
G1 X98.69 Y115.934 E3.22322
G1 X97.596 Y115.801 E3.2782
G1 X96.034 Y115.48 E3.35776
G1 X95.032 Y115.192 E3.40977
G1 X93.841 Y114.749 E3.47317
G1 X92.954 Y114.345 E3.52179
G1 X91.71 Y113.666 E3.5925
G1 X90.904 Y113.149 E3.64027
G1 X90.024 Y112.493 E3.69503
G1 X89.408 Y111.975 E3.73519
G1 X88.554 Y111.165 E3.79391
G1 X87.871 Y110.411 E3.84466
G1 X86.977 Y109.264 E3.91722
G1 X86.506 Y108.578 E3.95873
G1 X86.04 Y107.8 E4.00398
G1 X85.611 Y106.955 E4.05126
G1 X85.002 Y105.515 E4.12926
G1 X84.687 Y104.591 E4.17796
G1 X84.391 Y103.462 E4.23619
G1 X84.235 Y102.682 E4.27588
G1 X84.11 Y101.791 E4.32076
G1 X84.046 Y100.993 E4.3607
G1 X84.017 Y99.649 E4.42777
G1 X84.072 Y98.627 E4.47883
G1 X84.247 Y97.278 E4.5467
G1 X84.436 Y96.339 E4.59449
G1 X84.774 Y95.118 E4.65769
G1 X85.105 Y94.19 E4.70685
G1 X85.65 Y92.953 E4.77429
G1 X86.052 Y92.18 E4.81776
G1 X86.561 Y91.337 E4.86688
G1 X87.008 Y90.686 E4.90628
G1 X87.739 Y89.743 E4.96581
G1 X88.326 Y89.079 E5.01002
G0 F3600 X88.608 Y89.363
G1 F2400 X89.511 Y88.468 E5.07345
G1 X90.202 Y87.874 E5.11892
G1 X91.233 Y87.109 E5.18297
G1 X92.033 Y86.603 E5.23019
G1 X93.256 Y85.95 E5.29936
G1 X94.113 Y85.571 E5.34611
G1 X95.395 Y85.112 E5.41404
G1 X96.219 Y84.877 E5.45679
G1 X97.29 Y84.649 E5.51142
G1 X98.064 Y84.533 E5.55047
G1 X99.215 Y84.432 E5.60811
G1 X100.114 Y84.417 E5.65297
G1 X101.6 Y84.496 E5.72721
G1 X102.616 Y84.632 E5.77835
G1 X103.889 Y84.908 E5.84334
G1 X104.697 Y85.14 E5.88528
G1 X105.927 Y85.582 E5.95049
G1 X106.859 Y86.004 E6.00153
G1 X108.167 Y86.727 E6.07609
G1 X108.934 Y87.225 E6.12171
G1 X109.852 Y87.92 E6.17916
G1 X110.526 Y88.509 E6.22381
G1 X111.539 Y89.527 E6.29546
G1 X112.155 Y90.246 E6.3427
G1 X112.926 Y91.293 E6.40757
G1 X113.349 Y91.946 E6.44639
G1 X113.833 Y92.805 E6.49558
G1 X114.155 Y93.461 E6.53203
G1 X114.536 Y94.365 E6.58098
G1 X114.809 Y95.153 E6.62258
G1 X115.205 Y96.592 E6.69704
G1 X115.374 Y97.416 E6.73901
G1 X115.503 Y98.352 E6.78615
G1 X115.563 Y99.178 E6.82747
G1 X115.574 Y100.631 E6.89996
G1 X115.539 Y101.345 E6.93562
G1 X115.488 Y101.724 E6.9547
G1 X115.222 Y103.332 E7.03601
G1 X115.066 Y104.03 E7.0717
G1 X114.922 Y104.477 E7.09513
G1 X114.304 Y106.174 E7.18523
G1 X113.861 Y107.135 E7.23802
G1 X113.271 Y108.178 E7.29781
G1 X112.811 Y108.879 E7.33964
G1 X112.092 Y109.833 E7.39924
G1 X111.603 Y110.408 E7.43689
G1 X110.834 Y111.211 E7.49236
G1 X110.355 Y111.662 E7.52519
G1 X109.851 Y112.09 E7.55818
G1 X109.202 Y112.574 E7.59857
G1 X107.813 Y113.479 E7.68128
G1 X107.193 Y113.836 E7.71697
G1 X106.695 Y114.06 E7.74421
G1 X104.849 Y114.798 E7.8434
G1 X103.941 Y115.084 E7.89089
G1 X103.19 Y115.261 E7.92938
G1 X102.43 Y115.393 E7.96787
G1 X100.984 Y115.554 E8.04046
G1 X100.017 Y115.588 E8.08873
G1 X98.706 Y115.535 E8.15419
G1 X97.677 Y115.409 E8.20591
G1 X96.115 Y115.088 E8.28547
G1 X95.172 Y114.817 E8.33442
G1 X93.981 Y114.374 E8.39781
G1 X93.146 Y113.994 E8.44358
G1 X91.902 Y113.315 E8.51429
G1 X91.143 Y112.828 E8.55928
G1 X90.263 Y112.172 E8.61404
G1 X89.684 Y111.685 E8.65179
G1 X88.83 Y110.875 E8.71051
G1 X88.186 Y110.165 E8.75833
G1 X87.292 Y109.018 E8.83088
G1 X86.85 Y108.373 E8.86989
G1 X86.384 Y107.595 E8.91514
G1 X85.979 Y106.799 E8.9597
G1 X85.37 Y105.359 E9.0377
G1 X85.074 Y104.489 E9.08355
G1 X84.778 Y103.36 E9.14178
G1 X84.631 Y102.626 E9.17912
G1 X84.506 Y101.735 E9.22401
G1 X84.445 Y100.984 E9.2616
G1 X84.416 Y99.64 E9.32867
G1 X84.468 Y98.679 E9.37668
G1 X84.643 Y97.33 E9.44455
G1 X84.822 Y96.446 E9.48955
G1 X85.16 Y95.225 E9.55275
G1 X85.471 Y94.352 E9.59899
G1 X86.016 Y93.115 E9.66643
G1 X86.394 Y92.387 E9.70735
G1 X86.903 Y91.544 E9.75648
G1 X87.324 Y90.931 E9.79358
G1 X88.055 Y89.988 E9.85311
G1 X88.608 Y89.363 E9.89474
G0 F3600 X88.889 Y89.648
G1 F2400 X89.792 Y88.753 E9.95817
G1 X90.441 Y88.196 E10.00084
G1 X91.472 Y87.431 E10.06489
G1 X92.221 Y86.956 E10.10914
G1 X93.444 Y86.303 E10.17831
G1 X94.248 Y85.947 E10.22218
G1 X95.53 Y85.488 E10.29011
G1 X96.303 Y85.269 E10.33019
G1 X97.374 Y85.041 E10.38482
G1 X98.099 Y84.932 E10.4214
G1 X99.25 Y84.831 E10.47905
G1 X100.093 Y84.816 E10.52111
G1 X101.579 Y84.895 E10.59535
G1 X102.531 Y85.023 E10.64327
G1 X103.804 Y85.299 E10.70826
G1 X104.562 Y85.517 E10.74761
G1 X105.792 Y85.959 E10.81282
G1 X106.666 Y86.354 E10.86067
G1 X107.974 Y87.077 E10.93523
G1 X108.693 Y87.544 E10.978
G1 X109.611 Y88.239 E11.03545
G1 X110.242 Y88.791 E11.07727
G1 X111.255 Y89.809 E11.14892
G1 X111.833 Y90.483 E11.19322
G1 X112.604 Y91.53 E11.25809
G1 X113 Y92.143 E11.2945
G1 X113.484 Y93.002 E11.34369
G1 X113.786 Y93.617 E11.37787
G1 X114.167 Y94.521 E11.42681
G1 X114.423 Y95.259 E11.46578
G1 X114.819 Y96.698 E11.54025
G1 X114.978 Y97.471 E11.57962
G1 X115.107 Y98.407 E11.62676
G1 X115.163 Y99.181 E11.66547
G1 X115.174 Y100.634 E11.73797
G1 X115.094 Y101.658 E11.78921
G1 X114.828 Y103.266 E11.87052
G1 X114.675 Y103.942 E11.9051
G1 X114.546 Y104.34 E11.92597
G1 X113.928 Y106.037 E12.01608
G1 X113.512 Y106.938 E12.06559
G1 X112.922 Y107.981 E12.12537
G1 X112.492 Y108.638 E12.16455
G1 X111.773 Y109.592 E12.22415
G1 X111.314 Y110.131 E12.25947
G1 X110.545 Y110.934 E12.31493
G1 X110.096 Y111.357 E12.34571
G1 X109.592 Y111.785 E12.3787
G1 X108.983 Y112.239 E12.4166
G1 X107.594 Y113.144 E12.4993
G1 X106.993 Y113.488 E12.53385
G1 X106.546 Y113.688 E12.55828
G1 X104.7 Y114.426 E12.65747
G1 X103.849 Y114.695 E12.702
G1 X103.098 Y114.872 E12.74049
G1 X102.386 Y114.995 E12.77654
G1 X100.94 Y115.156 E12.84912
G1 X100.034 Y115.188 E12.89435
G1 X98.723 Y115.135 E12.95981
G1 X97.757 Y115.017 E13.00836
G1 X96.195 Y114.696 E13.08792
G1 X95.311 Y114.443 E13.1338
G1 X94.12 Y114 E13.19719
G1 X93.337 Y113.643 E13.24012
G1 X92.093 Y112.964 E13.31083
G1 X91.382 Y112.507 E13.353
G1 X90.502 Y111.851 E13.40776
G1 X89.959 Y111.394 E13.44317
G1 X89.105 Y110.584 E13.50189
G1 X88.502 Y109.919 E13.54667
G1 X87.608 Y108.772 E13.61923
G1 X87.193 Y108.167 E13.65583
G1 X86.727 Y107.389 E13.70107
G1 X86.348 Y106.643 E13.74282
G1 X85.739 Y105.203 E13.82082
G1 X85.461 Y104.388 E13.86378
G1 X85.165 Y103.259 E13.92201
G1 X85.027 Y102.571 E13.95702
G1 X84.902 Y101.68 E14.00191
G1 X84.845 Y100.975 E14.0372
G1 X84.816 Y99.631 E14.10426
G1 X84.865 Y98.73 E14.14928
G1 X85.04 Y97.381 E14.21715
G1 X85.207 Y96.552 E14.25934
G1 X85.545 Y95.331 E14.32254
G1 X85.837 Y94.513 E14.36588
G1 X86.382 Y93.276 E14.43332
G1 X86.737 Y92.594 E14.47167
G1 X87.246 Y91.751 E14.5208
G1 X87.64 Y91.176 E14.55558
G1 X88.371 Y90.233 E14.61511
G1 X88.889 Y89.648 E14.65409
G0 F3600 X89.171 Y89.932
G1 F2400 X90.074 Y89.037 E14.71752
G1 X90.679 Y88.517 E14.75732
G1 X91.71 Y87.752 E14.82137
G1 X92.409 Y87.309 E14.86266
G1 X93.632 Y86.656 E14.93182
G1 X94.382 Y86.324 E14.97274
G1 X95.664 Y85.865 E15.04068
G1 X96.386 Y85.66 E15.07812
G1 X97.457 Y85.432 E15.13275
G1 X98.133 Y85.33 E15.16686
G1 X99.284 Y85.229 E15.2245
G1 X100.071 Y85.216 E15.26377
G1 X101.557 Y85.295 E15.33802
G1 X102.447 Y85.414 E15.38281
G1 X103.72 Y85.69 E15.4478
G1 X104.427 Y85.893 E15.4845
G1 X105.657 Y86.335 E15.5497
G1 X106.472 Y86.704 E15.59434
G1 X107.78 Y87.427 E15.6689
G1 X108.451 Y87.863 E15.70882
G1 X109.369 Y88.558 E15.76627
G1 X109.959 Y89.073 E15.80534
G1 X110.972 Y90.091 E15.87699
G1 X111.511 Y90.72 E15.91831
G1 X112.282 Y91.767 E15.98318
G1 X112.652 Y92.339 E16.01717
G1 X113.136 Y93.198 E16.06636
G1 X113.417 Y93.772 E16.09824
G1 X113.798 Y94.676 E16.14719
G1 X114.037 Y95.365 E16.18357
G1 X114.433 Y96.804 E16.25803
G1 X114.582 Y97.525 E16.29476
G1 X114.711 Y98.461 E16.3419
G1 X114.763 Y99.184 E16.37806
G1 X114.774 Y100.637 E16.45056
G1 X114.699 Y101.593 E16.4984
G1 X114.433 Y103.201 E16.57971
G1 X114.284 Y103.853 E16.61308
G1 X114.17 Y104.203 E16.63144
G1 X113.552 Y105.9 E16.72155
G1 X113.164 Y106.741 E16.76775
G1 X112.574 Y107.784 E16.82754
G1 X112.172 Y108.397 E16.86411
G1 X111.453 Y109.351 E16.92371
G1 X111.025 Y109.854 E16.95666
G1 X110.256 Y110.657 E17.01213
G1 X109.837 Y111.053 E17.04089
G1 X109.333 Y111.481 E17.07388
G1 X108.765 Y111.904 E17.10921
G1 X107.376 Y112.809 E17.19192
G1 X106.795 Y113.14 E17.22528
G1 X106.398 Y113.317 E17.24697
G1 X104.552 Y114.055 E17.34615
G1 X103.758 Y114.306 E17.3877
G1 X103.007 Y114.483 E17.42619
G1 X102.342 Y114.598 E17.45986
G1 X100.896 Y114.759 E17.53245
G1 X100.05 Y114.788 E17.57468
G1 X98.739 Y114.735 E17.64014
G1 X97.838 Y114.625 E17.68542
G1 X96.276 Y114.304 E17.76498
G1 X95.451 Y114.068 E17.80779
G1 X94.26 Y113.625 E17.87119
G1 X93.529 Y113.291 E17.91128
G1 X92.285 Y112.612 E17.98199
G1 X91.621 Y112.187 E18.02132
G1 X90.741 Y111.531 E18.07608
G1 X90.234 Y111.104 E18.10915
G1 X89.38 Y110.294 E18.16787
G1 X88.817 Y109.674 E18.20966
G1 X87.923 Y108.527 E18.28221
G1 X87.536 Y107.962 E18.31638
G1 X87.07 Y107.184 E18.36162
G1 X86.716 Y106.487 E18.40062
G1 X86.107 Y105.047 E18.47862
G1 X85.848 Y104.286 E18.51873
G1 X85.552 Y103.157 E18.57696
G1 X85.423 Y102.515 E18.60963
G1 X85.298 Y101.624 E18.65452
G1 X85.245 Y100.967 E18.6874
G1 X85.216 Y99.623 E18.75447
G1 X85.262 Y98.782 E18.79649
G1 X85.437 Y97.433 E18.86435
G1 X85.593 Y96.659 E18.90375
G1 X85.931 Y95.438 E18.96695
G1 X86.203 Y94.674 E19.00741
G1 X86.748 Y93.437 E19.07485
G1 X87.079 Y92.8 E19.11067
G1 X87.588 Y91.957 E19.15979
G1 X87.956 Y91.421 E19.19223
G1 X88.687 Y90.478 E19.25176
G1 X89.171 Y89.932 E19.28816
G0 F3600 X89.452 Y90.216
G1 F2400 X90.355 Y89.321 E19.35159
G1 X90.917 Y88.838 E19.38856
G1 X91.948 Y88.073 E19.45261
G1 X92.598 Y87.662 E19.49098
G1 X93.821 Y87.009 E19.56015
G1 X94.517 Y86.7 E19.59814
G1 X95.799 Y86.241 E19.66607
G1 X96.469 Y86.051 E19.70082
G1 X97.54 Y85.823 E19.75545
G1 X98.168 Y85.729 E19.78713
G1 X99.319 Y85.628 E19.84477
G1 X100.05 Y85.615 E19.88125
G1 X101.536 Y85.694 E19.95549
G1 X102.362 Y85.805 E19.99707
G1 X103.635 Y86.081 E20.06205
G1 X104.292 Y86.269 E20.09615
G1 X105.522 Y86.711 E20.16135
G1 X106.279 Y87.054 E20.20282
G1 X107.587 Y87.777 E20.27738
G1 X108.21 Y88.182 E20.31445
G1 X109.128 Y88.877 E20.3719
G1 X109.675 Y89.355 E20.40814
G1 X110.688 Y90.373 E20.47979
G1 X111.189 Y90.958 E20.51821
G1 X111.96 Y92.005 E20.58308
G1 X112.303 Y92.535 E20.61458
G1 X112.787 Y93.394 E20.66377
G1 X113.049 Y93.927 E20.6934
G1 X113.43 Y94.831 E20.74234
G1 X113.652 Y95.471 E20.77614
G1 X114.048 Y96.91 E20.8506
G1 X114.185 Y97.58 E20.88472
G1 X114.314 Y98.516 E20.93186
G1 X114.363 Y99.187 E20.96542
G1 X114.374 Y100.64 E21.03791
G1 X114.304 Y101.528 E21.08235
G1 X114.038 Y103.136 E21.16367
G1 X113.794 Y104.066 E21.21164
G1 X113.176 Y105.763 E21.30174
G1 X112.816 Y106.544 E21.34464
G1 X112.226 Y107.587 E21.40443
G1 X111.853 Y108.157 E21.43841
G1 X111.134 Y109.111 E21.49801
G1 X110.737 Y109.578 E21.52859
G1 X109.968 Y110.381 E21.58406
G1 X109.578 Y110.748 E21.61078
G1 X109.074 Y111.176 E21.64377
G1 X108.547 Y111.569 E21.67656
G1 X107.158 Y112.474 E21.75927
G1 X106.597 Y112.792 E21.79144
G1 X106.249 Y112.945 E21.81041
G1 X104.403 Y113.683 E21.90959
G1 X103.666 Y113.916 E21.94816
G1 X102.915 Y114.093 E21.98665
G1 X102.297 Y114.2 E22.01794
G1 X100.851 Y114.361 E22.09053
G1 X100.066 Y114.389 E22.12972
G1 X98.755 Y114.336 E22.19518
G1 X97.918 Y114.234 E22.23724
G1 X96.356 Y113.913 E22.3168
G1 X95.59 Y113.693 E22.35656
G1 X94.399 Y113.25 E22.41996
G1 X93.721 Y112.94 E22.45715
G1 X92.477 Y112.261 E22.52786
G1 X91.86 Y111.866 E22.56441
G1 X90.98 Y111.21 E22.61917
G1 X90.51 Y110.814 E22.64983
G1 X89.656 Y110.004 E22.70855
G1 X89.133 Y109.428 E22.74737
G1 X88.239 Y108.281 E22.81992
G1 X87.879 Y107.756 E22.85168
G1 X87.413 Y106.978 E22.89692
G1 X87.085 Y106.331 E22.93311
G1 X86.476 Y104.891 E23.01112
G1 X86.235 Y104.185 E23.04834
G1 X85.939 Y103.056 E23.10656
G1 X85.819 Y102.459 E23.13695
G1 X85.694 Y101.568 E23.18183
G1 X85.645 Y100.958 E23.21236
G1 X85.616 Y99.614 E23.27943
G1 X85.658 Y98.833 E23.31845
G1 X85.833 Y97.484 E23.38632
G1 X85.978 Y96.766 E23.42286
G1 X86.316 Y95.545 E23.48607
G1 X86.569 Y94.835 E23.52367
G1 X87.114 Y93.598 E23.59111
G1 X87.422 Y93.007 E23.62436
G1 X87.931 Y92.164 E23.67349
G1 X88.272 Y91.666 E23.7036
G1 X89.003 Y90.723 E23.76313
G1 X89.452 Y90.216 E23.79692
G0 F3600 X89.734 Y90.5
G1 F2400 X90.637 Y89.605 E23.86035
G1 X91.156 Y89.159 E23.89449
G1 X92.187 Y88.394 E23.95854
G1 X92.786 Y88.015 E23.9939
G1 X94.009 Y87.362 E24.06307
G1 X94.652 Y87.077 E24.09816
G1 X95.934 Y86.618 E24.16609
G1 X96.553 Y86.442 E24.1982
G1 X97.624 Y86.214 E24.25283
G1 X98.203 Y86.127 E24.28204
G1 X99.354 Y86.026 E24.33968
G1 X100.029 Y86.015 E24.37336
G1 X101.515 Y86.094 E24.4476
G1 X102.277 Y86.196 E24.48596
G1 X103.55 Y86.472 E24.55095
G1 X104.156 Y86.646 E24.5824
G1 X105.386 Y87.088 E24.64761
G1 X106.085 Y87.404 E24.68588
G1 X107.393 Y88.127 E24.76044
G1 X107.968 Y88.501 E24.79466
G1 X108.886 Y89.196 E24.85211
G1 X109.391 Y89.637 E24.88556
G1 X110.404 Y90.655 E24.9572
G1 X110.867 Y91.195 E24.99269
G1 X111.638 Y92.242 E25.05756
G1 X111.955 Y92.732 E25.08668
G1 X112.439 Y93.591 E25.13587
G1 X112.68 Y94.083 E25.1632
G1 X113.061 Y94.987 E25.21214
G1 X113.266 Y95.577 E25.2433
G1 X113.662 Y97.016 E25.31777
G1 X113.789 Y97.635 E25.34929
G1 X113.918 Y98.571 E25.39643
G1 X113.963 Y99.19 E25.42739
G1 X113.974 Y100.643 E25.49989
G1 X113.91 Y101.462 E25.54087
G1 X113.644 Y103.07 E25.62218
G1 X113.418 Y103.93 E25.66655
G1 X112.8 Y105.627 E25.75665
G1 X112.468 Y106.347 E25.79621
G1 X111.878 Y107.39 E25.85599
G1 X111.533 Y107.916 E25.88737
G1 X110.814 Y108.87 E25.94697
G1 X110.448 Y109.301 E25.97518
G1 X109.679 Y110.104 E26.03065
G1 X109.319 Y110.443 E26.05532
G1 X108.815 Y110.871 E26.08831
G1 X108.328 Y111.234 E26.11861
G1 X106.939 Y112.139 E26.20132
G1 X106.4 Y112.443 E26.23219
G1 X106.101 Y112.574 E26.24848
G1 X104.255 Y113.312 E26.34766
G1 X103.574 Y113.527 E26.38329
G1 X102.823 Y113.704 E26.42179
