;FLAVOR:Marlin
;TIME:280
;Filament used: 0.291553m
;Layer height: 0.15
;Generated with Cura_SteamEngine 3.3.1
M190 S30
M104 S207
M109 S207
M82 ;absolute extrusion mode
G21 ;metric values
G90 ;absolute positioning
M82 ;set extruder to absolute mode
M107 ;start with the fan off
G28 X0 Y0 ;move X/Y to min endstops
G28 Z0 ;move Z to min endstops
G1 Z15.0 F9000 ;move the platform down 15mm
G92 E0 ;zero the extruded length
G1 F200 E3 ;extrude 3mm of feed stock
G92 E0 ;zero the extruded length again
G1 F9000
;Put printing message on LCD screen
M117 Printing...
G92 E0
G1 F1500 E-2.5
;LAYER_COUNT:33
;LAYER:0
M107
G0 F3600 X88.305 Y88.75 Z0.3
;TYPE:SKIRT
G1 F1500 E0
G1 F2400 X89.264 Y87.832 E0.06623
G1 X89.868 Y87.318 E0.1058
G1 X90.624 Y86.747 E0.15307
G1 X91.337 Y86.276 E0.1957
G1 X92.492 Y85.613 E0.26214
G1 X93.356 Y85.195 E0.31003
G1 X94.616 Y84.692 E0.37771
G1 X95.494 Y84.408 E0.42375
G1 X96.663 Y84.117 E0.48385
G1 X97.387 Y83.978 E0.52063
G1 X97.807 Y83.934 E0.5417
G1 X99.818 Y83.786 E0.6423
G1 X100.555 Y83.772 E0.67908
G1 X100.955 Y83.798 E0.69907
G1 X102.09 Y83.905 E0.75595
G1 X102.829 Y84.016 E0.79323
G1 X103.806 Y84.218 E0.84301
G1 X104.614 Y84.438 E0.88479
G1 X105.778 Y84.833 E0.94611
G1 X106.555 Y85.151 E0.988
G1 X107.578 Y85.646 E1.04469
G1 X108.307 Y86.056 E1.08642
G1 X109.322 Y86.712 E1.14672
G1 X110.084 Y87.283 E1.19422
G1 X111.124 Y88.184 E1.26287
G1 X111.654 Y88.697 E1.29967
G1 X111.904 Y88.982 E1.31858
G1 X113.029 Y90.338 E1.40649
G1 X113.626 Y91.18 E1.45798
G1 X114.17 Y92.086 E1.5107
G1 X114.556 Y92.828 E1.55243
G1 X115.1 Y94.054 E1.61935
G1 X115.418 Y94.927 E1.6657
G1 X115.757 Y96.102 E1.72671
G1 X115.942 Y96.943 E1.76968
G1 X116.109 Y98.018 E1.82395
G1 X116.181 Y98.716 E1.85896
G1 X116.232 Y99.716 E1.90891
G1 X116.209 Y100.72 E1.95902
G1 X116.045 Y102.406 E2.04353
G1 X115.861 Y103.447 E2.09627
G1 X115.55 Y104.652 E2.15836
G1 X115.306 Y105.411 E2.19813
G1 X114.952 Y106.324 E2.24699
G1 X114.562 Y107.158 E2.29292
G1 X113.815 Y108.508 E2.36989
G1 X113.252 Y109.365 E2.42105
G1 X112.441 Y110.418 E2.48736
G1 X111.822 Y111.118 E2.53398
G1 X110.924 Y112.001 E2.59681
G1 X110.188 Y112.628 E2.64505
G1 X109.035 Y113.477 E2.71648
G1 X108.418 Y113.881 E2.75328
G1 X108.064 Y114.073 E2.77337
G1 X106.505 Y114.859 E2.86047
G1 X105.83 Y115.155 E2.89725
G1 X105.465 Y115.28 E2.91649
G1 X104.18 Y115.68 E2.98364
G1 X103.434 Y115.866 E3.02199
G1 X102.664 Y116.013 E3.0611
G1 X101.905 Y116.114 E3.0993
G1 X100.513 Y116.22 E3.16895
G1 X99.555 Y116.226 E3.21675
G1 X98.418 Y116.152 E3.27359
G1 X97.475 Y116.023 E3.32108
G1 X95.865 Y115.688 E3.40312
G1 X95.152 Y115.499 E3.43992
G1 X94.75 Y115.355 E3.46123
G1 X93.359 Y114.805 E3.53585
G1 X92.482 Y114.383 E3.58441
G1 X91.423 Y113.777 E3.64528
G1 X90.725 Y113.319 E3.68693
G1 X89.846 Y112.661 E3.74171
G1 X89.187 Y112.099 E3.78492
G1 X88.232 Y111.173 E3.85128
G1 X87.628 Y110.503 E3.89629
G1 X86.869 Y109.541 E3.95742
G1 X86.306 Y108.709 E4.00754
G1 X85.582 Y107.445 E4.08021
G1 X85.233 Y106.744 E4.11928
G1 X84.903 Y105.974 E4.16108
G1 X84.68 Y105.377 E4.19287
G1 X84.424 Y104.581 E4.23459
G1 X84.21 Y103.733 E4.27822
G1 X83.928 Y102.205 E4.35574
G1 X83.817 Y101.146 E4.40886
G1 X83.778 Y99.634 E4.48432
G1 X83.831 Y98.597 E4.53613
G1 X83.996 Y97.306 E4.60106
G1 X84.134 Y96.559 E4.63896
G1 X84.339 Y95.717 E4.68219
G1 X84.628 Y94.811 E4.72964
G1 X85.255 Y93.236 E4.81421
G1 X85.697 Y92.328 E4.86459
G1 X86.269 Y91.346 E4.92129
G1 X86.78 Y90.591 E4.96677
G1 X87.642 Y89.484 E5.03677
G1 X88.305 Y88.75 E5.08612
G0 F3600 X88.581 Y89.039
G1 F2400 X89.54 Y88.121 E5.15235
G1 X90.109 Y87.637 E5.18962
G1 X90.865 Y87.066 E5.23688
G1 X91.536 Y86.622 E5.27703
G1 X92.691 Y85.959 E5.34347
G1 X93.504 Y85.566 E5.38852
G1 X94.764 Y85.063 E5.4562
G1 X95.591 Y84.797 E5.49954
G1 X96.76 Y84.506 E5.55965
G1 X97.463 Y84.372 E5.59535
G1 X97.836 Y84.333 E5.61406
G1 X99.847 Y84.185 E5.71466
G1 X100.918 Y84.196 E5.7681
G1 X102.053 Y84.303 E5.82497
G1 X102.748 Y84.408 E5.86004
G1 X103.725 Y84.61 E5.90981
G1 X104.486 Y84.816 E5.94915
G1 X105.65 Y85.211 E6.01047
G1 X106.381 Y85.511 E6.04989
G1 X107.404 Y86.006 E6.10659
G1 X108.09 Y86.392 E6.14586
G1 X109.105 Y87.048 E6.20616
G1 X109.822 Y87.586 E6.25088
G1 X110.862 Y88.487 E6.31953
G1 X111.597 Y89.238 E6.37195
G1 X112.722 Y90.594 E6.45986
G1 X113.283 Y91.385 E6.50824
G1 X113.827 Y92.291 E6.56096
G1 X114.19 Y92.99 E6.60025
G1 X114.734 Y94.216 E6.66717
G1 X115.033 Y95.038 E6.71081
G1 X115.372 Y96.213 E6.77182
G1 X115.547 Y97.005 E6.81229
G1 X115.714 Y98.08 E6.86656
G1 X115.782 Y98.736 E6.89947
G1 X115.833 Y99.736 E6.94942
G1 X115.811 Y100.682 E6.99663
G1 X115.647 Y102.368 E7.08114
G1 X115.474 Y103.347 E7.13074
G1 X115.163 Y104.552 E7.19283
G1 X114.933 Y105.267 E7.2303
G1 X114.579 Y106.18 E7.27915
G1 X114.212 Y106.965 E7.32239
G1 X113.465 Y108.315 E7.39936
G1 X112.935 Y109.121 E7.44749
G1 X112.124 Y110.174 E7.5138
G1 X111.541 Y110.832 E7.55766
G1 X110.643 Y111.715 E7.62049
G1 X109.951 Y112.306 E7.66589
G1 X108.798 Y113.155 E7.73733
G1 X107.884 Y113.716 E7.79083
G1 X106.325 Y114.502 E7.87793
G1 X105.346 Y114.898 E7.93062
G1 X104.061 Y115.298 E7.99776
G1 X103.359 Y115.473 E8.03386
G1 X102.589 Y115.62 E8.07297
G1 X101.875 Y115.716 E8.10891
G1 X100.483 Y115.822 E8.17856
G1 X99.581 Y115.826 E8.22356
G1 X98.444 Y115.752 E8.28041
G1 X97.556 Y115.632 E8.32511
G1 X95.946 Y115.297 E8.40715
G1 X95.255 Y115.112 E8.44284
G1 X94.897 Y114.983 E8.46183
G1 X93.506 Y114.433 E8.53645
G1 X92.68 Y114.036 E8.58217
G1 X91.621 Y113.43 E8.64305
G1 X90.965 Y112.998 E8.68223
G1 X90.086 Y112.34 E8.73701
G1 X89.466 Y111.812 E8.77764
G1 X88.511 Y110.886 E8.84401
G1 X87.942 Y110.255 E8.8864
G1 X87.183 Y109.293 E8.94753
G1 X86.653 Y108.51 E8.9947
G1 X85.929 Y107.246 E9.06738
G1 X85.6 Y106.586 E9.10417
G1 X85.27 Y105.816 E9.14596
G1 X85.06 Y105.254 E9.17589
G1 X84.804 Y104.458 E9.21761
G1 X84.603 Y103.661 E9.25862
G1 X84.321 Y102.133 E9.33614
G1 X84.217 Y101.136 E9.38615
G1 X84.178 Y99.624 E9.46161
G1 X84.228 Y98.648 E9.51036
G1 X84.393 Y97.357 E9.5753
G1 X84.523 Y96.654 E9.61096
G1 X84.728 Y95.812 E9.6542
G1 X85 Y94.959 E9.69887
G1 X85.627 Y93.384 E9.78344
G1 X86.043 Y92.53 E9.83083
G1 X86.615 Y91.548 E9.88753
G1 X87.095 Y90.837 E9.93033
G1 X87.957 Y89.73 E10.00033
G1 X88.581 Y89.039 E10.04678
G0 F3600 X88.858 Y89.328
G1 F2400 X89.817 Y88.41 E10.11301
G1 X90.35 Y87.956 E10.14794
G1 X91.106 Y87.385 E10.19521
G1 X91.735 Y86.969 E10.23283
G1 X92.89 Y86.306 E10.29927
G1 X93.652 Y85.938 E10.34149
G1 X94.912 Y85.435 E10.40917
G1 X95.688 Y85.185 E10.44985
G1 X96.857 Y84.894 E10.50995
G1 X97.866 Y84.732 E10.56093
G1 X99.877 Y84.584 E10.66153
G1 X100.88 Y84.594 E10.71158
G1 X102.015 Y84.701 E10.76845
G1 X102.667 Y84.799 E10.80135
G1 X103.644 Y85.001 E10.85112
G1 X104.357 Y85.195 E10.88798
G1 X105.521 Y85.59 E10.94931
G1 X106.206 Y85.871 E10.98625
G1 X107.229 Y86.366 E11.04295
G1 X107.873 Y86.728 E11.0798
G1 X108.888 Y87.384 E11.1401
G1 X109.56 Y87.888 E11.18201
G1 X110.6 Y88.789 E11.25066
G1 X111.289 Y89.493 E11.2998
G1 X112.414 Y90.849 E11.3877
G1 X112.94 Y91.591 E11.43308
G1 X113.484 Y92.497 E11.4858
G1 X113.824 Y93.152 E11.52262
G1 X114.368 Y94.378 E11.58954
G1 X114.649 Y95.149 E11.63048
G1 X114.988 Y96.324 E11.69149
G1 X115.152 Y97.066 E11.7294
G1 X115.319 Y98.141 E11.78368
G1 X115.382 Y98.756 E11.81452
G1 X115.433 Y99.756 E11.86447
G1 X115.413 Y100.643 E11.90874
G1 X115.249 Y102.329 E11.99325
G1 X115.087 Y103.247 E12.03976
G1 X114.776 Y104.452 E12.10184
G1 X114.56 Y105.122 E12.13696
G1 X114.206 Y106.035 E12.18582
G1 X113.862 Y106.771 E12.22635
G1 X113.115 Y108.121 E12.30333
G1 X112.619 Y108.877 E12.34844
G1 X111.808 Y109.93 E12.41475
G1 X111.261 Y110.547 E12.45588
G1 X110.363 Y111.43 E12.51871
G1 X109.714 Y111.983 E12.56125
G1 X108.561 Y112.832 E12.63269
G1 X107.704 Y113.359 E12.68288
G1 X106.145 Y114.145 E12.76999
G1 X105.227 Y114.516 E12.81938
G1 X103.942 Y114.916 E12.88653
G1 X103.284 Y115.081 E12.92037
G1 X102.514 Y115.228 E12.95948
G1 X101.845 Y115.317 E12.99315
G1 X100.453 Y115.423 E13.0628
G1 X99.607 Y115.427 E13.10501
G1 X98.47 Y115.353 E13.16185
G1 X97.638 Y115.24 E13.20374
G1 X96.028 Y114.905 E13.28579
G1 X95.044 Y114.611 E13.33702
G1 X93.653 Y114.061 E13.41165
G1 X92.879 Y113.689 E13.45449
G1 X91.82 Y113.083 E13.51536
G1 X91.204 Y112.678 E13.55214
G1 X90.325 Y112.02 E13.60692
G1 X89.744 Y111.525 E13.645
G1 X88.789 Y110.599 E13.71137
G1 X88.256 Y110.007 E13.75111
G1 X87.497 Y109.045 E13.81224
G1 X87.001 Y108.311 E13.85644
G1 X86.277 Y107.047 E13.92911
G1 X85.968 Y106.429 E13.96358
G1 X85.638 Y105.659 E14.00538
G1 X85.441 Y105.132 E14.03345
G1 X85.185 Y104.336 E14.07516
G1 X84.997 Y103.588 E14.11364
G1 X84.715 Y102.06 E14.19116
G1 X84.617 Y101.126 E14.23802
G1 X84.578 Y99.614 E14.31348
G1 X84.624 Y98.698 E14.35923
G1 X84.789 Y97.407 E14.42416
G1 X84.911 Y96.749 E14.45755
G1 X85.116 Y95.907 E14.50079
G1 X85.371 Y95.107 E14.54268
G1 X85.998 Y93.532 E14.62725
G1 X86.388 Y92.731 E14.6717
G1 X86.96 Y91.749 E14.7284
G1 X87.411 Y91.083 E14.76852
G1 X88.273 Y89.976 E14.83852
G1 X88.858 Y89.328 E14.88208
G0 F3600 X89.135 Y89.617
G1 F2400 X90.094 Y88.699 E14.94831
G1 X90.591 Y88.275 E14.9809
G1 X91.347 Y87.704 E15.02817
G1 X91.934 Y87.316 E15.06327
G1 X93.089 Y86.653 E15.12971
G1 X93.801 Y86.309 E15.16916
G1 X95.061 Y85.806 E15.23685
G1 X95.784 Y85.573 E15.27475
G1 X96.953 Y85.282 E15.33485
G1 X97.895 Y85.131 E15.38245
G1 X99.906 Y84.983 E15.48305
G1 X100.843 Y84.993 E15.5298
G1 X101.978 Y85.1 E15.58667
G1 X102.586 Y85.191 E15.61734
G1 X103.563 Y85.393 E15.66712
G1 X104.229 Y85.574 E15.70155
G1 X105.393 Y85.969 E15.76287
G1 X106.032 Y86.231 E15.79733
G1 X107.055 Y86.726 E15.85403
G1 X107.656 Y87.064 E15.88843
G1 X108.671 Y87.72 E15.94872
G1 X109.298 Y88.19 E15.98782
G1 X110.338 Y89.091 E16.05647
G1 X110.981 Y89.748 E16.10233
G1 X112.106 Y91.104 E16.19023
G1 X112.597 Y91.797 E16.2326
G1 X113.141 Y92.703 E16.28533
G1 X113.459 Y93.315 E16.31974
G1 X114.003 Y94.541 E16.38665
G1 X114.265 Y95.26 E16.42483
G1 X114.604 Y96.435 E16.48584
G1 X114.757 Y97.127 E16.5212
G1 X114.924 Y98.202 E16.57548
G1 X114.983 Y98.777 E16.60431
G1 X115.034 Y99.777 E16.65427
G1 X115.015 Y100.604 E16.69554
G1 X114.851 Y102.29 E16.78005
G1 X114.699 Y103.147 E16.82347
G1 X114.388 Y104.352 E16.88556
G1 X114.187 Y104.977 E16.91832
G1 X113.833 Y105.89 E16.96717
G1 X113.512 Y106.577 E17.005
G1 X112.765 Y107.927 E17.08198
G1 X112.302 Y108.633 E17.1241
G1 X111.491 Y109.686 E17.19041
G1 X110.98 Y110.262 E17.22882
G1 X110.082 Y111.145 E17.29165
G1 X109.476 Y111.661 E17.33136
G1 X108.323 Y112.51 E17.4028
G1 X107.524 Y113.001 E17.44958
G1 X105.965 Y113.787 E17.53669
G1 X105.108 Y114.134 E17.58282
G1 X103.823 Y114.534 E17.64996
G1 X103.209 Y114.688 E17.68154
G1 X102.439 Y114.835 E17.72065
G1 X101.814 Y114.918 E17.75211
G1 X100.422 Y115.024 E17.82175
G1 X99.633 Y115.028 E17.86112
G1 X98.496 Y114.954 E17.91796
G1 X97.719 Y114.849 E17.95708
G1 X96.109 Y114.514 E18.03912
G1 X95.191 Y114.239 E18.08693
G1 X93.8 Y113.689 E18.16156
G1 X93.078 Y113.341 E18.20155
G1 X92.019 Y112.735 E18.26242
G1 X91.444 Y112.358 E18.29672
G1 X90.565 Y111.7 E18.3515
G1 X90.023 Y111.237 E18.38706
G1 X89.068 Y110.311 E18.45343
G1 X88.57 Y109.76 E18.49048
G1 X87.811 Y108.798 E18.55162
G1 X87.348 Y108.112 E18.59291
G1 X86.624 Y106.848 E18.66558
G1 X86.336 Y106.271 E18.69775
G1 X86.006 Y105.501 E18.73955
G1 X85.822 Y105.01 E18.76571
G1 X85.566 Y104.214 E18.80742
G1 X85.39 Y103.515 E18.84339
G1 X85.108 Y101.987 E18.92091
G1 X85.017 Y101.115 E18.96465
G1 X84.978 Y99.603 E19.04011
G1 X85.021 Y98.749 E19.08277
G1 X85.186 Y97.458 E19.1477
G1 X85.3 Y96.843 E19.1789
G1 X85.505 Y96.001 E19.22214
G1 X85.743 Y95.255 E19.2612
G1 X86.37 Y93.68 E19.34578
G1 X86.734 Y92.932 E19.38728
G1 X87.306 Y91.95 E19.44398
G1 X87.727 Y91.328 E19.48145
G1 X88.589 Y90.221 E19.55145
G1 X89.135 Y89.617 E19.59207
G0 F3600 X89.411 Y89.906
G1 F2400 X90.37 Y88.988 E19.6583
G1 X90.832 Y88.595 E19.68856
G1 X91.588 Y88.024 E19.73583
G1 X92.133 Y87.663 E19.76844
G1 X93.288 Y87 E19.83488
G1 X93.949 Y86.681 E19.8715
G1 X95.209 Y86.178 E19.93919
G1 X95.881 Y85.961 E19.97442
G1 X97.05 Y85.67 E20.03452
G1 X97.924 Y85.53 E20.07868
G1 X99.935 Y85.382 E20.17928
G1 X100.805 Y85.391 E20.22268
G1 X101.94 Y85.498 E20.27956
G1 X102.505 Y85.583 E20.30807
G1 X103.482 Y85.785 E20.35784
G1 X104.1 Y85.953 E20.38979
G1 X105.264 Y86.348 E20.45112
G1 X105.858 Y86.591 E20.48313
G1 X106.881 Y87.086 E20.53983
G1 X107.439 Y87.4 E20.57178
G1 X108.454 Y88.056 E20.63207
G1 X109.036 Y88.493 E20.66838
G1 X110.076 Y89.394 E20.73703
G1 X110.673 Y90.004 E20.77961
G1 X111.798 Y91.36 E20.86752
G1 X112.254 Y92.003 E20.90684
G1 X112.798 Y92.909 E20.95957
G1 X113.093 Y93.477 E20.9915
G1 X113.637 Y94.703 E21.05841
G1 X113.88 Y95.371 E21.09388
G1 X114.219 Y96.546 E21.15489
G1 X114.361 Y97.189 E21.18774
G1 X114.528 Y98.264 E21.24202
G1 X114.583 Y98.797 E21.26875
G1 X114.634 Y99.797 E21.3187
G1 X114.617 Y100.565 E21.35703
G1 X114.453 Y102.251 E21.44154
G1 X114.312 Y103.047 E21.48187
G1 X114.001 Y104.252 E21.54396
G1 X113.814 Y104.833 E21.57441
G1 X113.46 Y105.746 E21.62326
G1 X113.162 Y106.384 E21.6584
G1 X112.415 Y107.734 E21.73537
G1 X111.985 Y108.389 E21.77446
G1 X111.174 Y109.442 E21.84077
G1 X110.7 Y109.977 E21.87643
G1 X109.802 Y110.86 E21.93926
G1 X109.239 Y111.339 E21.97614
G1 X108.086 Y112.188 E22.04758
G1 X107.344 Y112.644 E22.09103
G1 X105.785 Y113.43 E22.17813
G1 X104.99 Y113.752 E22.22092
G1 X103.705 Y114.152 E22.28807
G1 X103.134 Y114.295 E22.31743
G1 X102.364 Y114.442 E22.35654
G1 X101.784 Y114.519 E22.38573
G1 X100.392 Y114.625 E22.45538
G1 X99.659 Y114.629 E22.49195
G1 X98.522 Y114.555 E22.5488
G1 X97.801 Y114.457 E22.5851
G1 X96.191 Y114.122 E22.66714
G1 X95.338 Y113.867 E22.71156
G1 X93.947 Y113.317 E22.78619
G1 X93.276 Y112.994 E22.82334
G1 X92.217 Y112.388 E22.88421
G1 X91.684 Y112.038 E22.91602
G1 X90.805 Y111.38 E22.9708
G1 X90.301 Y110.95 E23.00385
G1 X89.346 Y110.024 E23.07022
G1 X88.884 Y109.512 E23.10463
G1 X88.125 Y108.55 E23.16576
G1 X87.695 Y107.914 E23.20406
G1 X86.971 Y106.65 E23.27673
G1 X86.703 Y106.113 E23.30668
G1 X86.373 Y105.343 E23.34847
G1 X86.203 Y104.887 E23.37275
G1 X85.947 Y104.091 E23.41447
G1 X85.783 Y103.443 E23.44781
G1 X85.501 Y101.915 E23.52533
G1 X85.417 Y101.105 E23.56596
G1 X85.378 Y99.593 E23.64142
G1 X85.418 Y98.8 E23.68103
G1 X85.583 Y97.509 E23.74597
G1 X85.689 Y96.938 E23.77494
G1 X85.894 Y96.096 E23.81818
G1 X86.115 Y95.403 E23.85446
G1 X86.742 Y93.828 E23.93904
G1 X87.08 Y93.134 E23.97755
G1 X87.652 Y92.152 E24.03425
G1 X88.042 Y91.574 E24.06904
G1 X88.904 Y90.467 E24.13903
G1 X89.411 Y89.906 E24.17676
G0 F3600 X89.688 Y90.195
G1 F2400 X90.647 Y89.277 E24.24299
G1 X91.073 Y88.914 E24.27091
G1 X91.829 Y88.343 E24.31818
G1 X92.332 Y88.01 E24.34827
G1 X93.487 Y87.347 E24.41472
G1 X94.097 Y87.052 E24.44852
G1 X95.357 Y86.549 E24.51621
G1 X95.978 Y86.349 E24.54876
G1 X97.147 Y86.058 E24.60886
G1 X97.954 Y85.929 E24.64963
G1 X99.965 Y85.781 E24.75023
G1 X100.768 Y85.789 E24.79029
G1 X101.903 Y85.896 E24.84717
G1 X102.424 Y85.974 E24.87345
G1 X103.401 Y86.176 E24.92323
G1 X103.971 Y86.332 E24.95271
G1 X105.135 Y86.727 E25.01404
G1 X105.684 Y86.951 E25.04362
G1 X106.707 Y87.446 E25.10032
G1 X107.221 Y87.736 E25.12976
G1 X108.236 Y88.392 E25.19005
G1 X108.774 Y88.795 E25.22359
G1 X109.814 Y89.696 E25.29224
G1 X110.365 Y90.259 E25.33154
G1 X111.49 Y91.615 E25.41944
G1 X111.911 Y92.209 E25.45577
G1 X112.455 Y93.115 E25.50849
G1 X112.727 Y93.639 E25.53794
G1 X113.271 Y94.865 E25.60486
G1 X113.496 Y95.481 E25.63758
G1 X113.835 Y96.656 E25.69859
G1 X113.966 Y97.25 E25.72894
G1 X114.133 Y98.325 E25.78321
G1 X114.184 Y98.818 E25.80794
G1 X114.235 Y99.818 E25.85789
G1 X114.218 Y100.527 E25.89328
G1 X114.054 Y102.213 E25.97779
G1 X113.925 Y102.948 E26.01502
G1 X113.614 Y104.153 E26.07711
G1 X113.441 Y104.688 E26.10516
G1 X113.087 Y105.601 E26.15401
G1 X112.812 Y106.19 E26.18644
G1 X112.065 Y107.54 E26.26342
G1 X111.668 Y108.145 E26.29952
G1 X110.857 Y109.198 E26.36583
G1 X110.419 Y109.692 E26.39877
G1 X109.521 Y110.575 E26.4616
G1 X109.002 Y111.017 E26.49561
G1 X107.849 Y111.866 E26.56704
