;FLAVOR:Marlin
;TIME:375
;Filament used: 0.418522m
;Layer height: 0.15
;Generated with Cura_SteamEngine 3.3.1
M190 S30
M104 S207
M109 S207
M82 ;absolute extrusion mode
G21 ;metric values
G90 ;absolute positioning
M82 ;set extruder to absolute mode
M107 ;start with the fan off
G28 X0 Y0 ;move X/Y to min endstops
G28 Z0 ;move Z to min endstops
G1 Z15.0 F9000 ;move the platform down 15mm
G92 E0 ;zero the extruded length
G1 F200 E3 ;extrude 3mm of feed stock
G92 E0 ;zero the extruded length again
G1 F9000
;Put printing message on LCD screen
M117 Printing...
G92 E0
G1 F1500 E-2.5
;LAYER_COUNT:33
;LAYER:0
M107
G0 F3600 X88.558 Y88.5 Z0.3
;TYPE:SKIRT
G1 F1500 E0
G1 F2400 X89.832 Y87.358 E0.08536
G1 X90.407 Y86.896 E0.12216
G1 X90.752 Y86.664 E0.1429
G1 X91.999 Y85.88 E0.21639
G1 X92.834 Y85.433 E0.26364
G1 X93.886 Y84.961 E0.32116
G1 X94.81 Y84.624 E0.37023
G1 X96.326 Y84.193 E0.44886
G1 X97.257 Y83.998 E0.49632
G1 X98.308 Y83.853 E0.54925
G1 X99.116 Y83.79 E0.58968
G1 X100.295 Y83.769 E0.64851
G1 X101.079 Y83.8 E0.68766
G1 X102.15 Y83.905 E0.74135
G1 X102.948 Y84.032 E0.78166
G1 X103.975 Y84.258 E0.83412
G1 X104.84 Y84.509 E0.87906
G1 X106.244 Y85.02 E0.9536
G1 X107.005 Y85.351 E0.995
G1 X107.747 Y85.729 E1.03655
G1 X108.364 Y86.085 E1.07209
G1 X109.351 Y86.726 E1.1308
G1 X110.109 Y87.298 E1.17818
G1 X111.136 Y88.191 E1.24607
G1 X111.665 Y88.704 E1.28284
G1 X111.921 Y88.996 E1.30221
G1 X113.063 Y90.381 E1.39177
G1 X113.668 Y91.243 E1.44431
G1 X114.241 Y92.211 E1.50043
G1 X114.609 Y92.926 E1.54055
G1 X115.085 Y94.003 E1.5993
G1 X115.415 Y94.927 E1.64825
G1 X115.814 Y96.359 E1.72241
G1 X115.974 Y97.079 E1.75921
G1 X116.037 Y97.577 E1.78425
G1 X116.212 Y99.529 E1.88203
G1 X116.238 Y100.266 E1.91882
G1 X116.217 Y100.678 E1.9394
G1 X116.127 Y101.803 E1.99571
G1 X115.996 Y102.697 E2.04078
G1 X115.665 Y104.229 E2.11898
G1 X115.362 Y105.242 E2.17173
G1 X114.905 Y106.426 E2.23505
G1 X114.497 Y107.294 E2.2829
G1 X113.855 Y108.443 E2.34856
G1 X113.315 Y109.264 E2.39759
G1 X112.398 Y110.46 E2.47278
G1 X111.696 Y111.242 E2.52521
G1 X110.675 Y112.216 E2.5956
G1 X110.025 Y112.763 E2.63799
G1 X109.214 Y113.363 E2.68832
G1 X108.533 Y113.806 E2.72885
G1 X107.554 Y114.363 E2.78504
G1 X106.892 Y114.694 E2.82197
G1 X105.933 Y115.109 E2.8741
G1 X105.122 Y115.4 E2.91709
G1 X103.888 Y115.757 E2.98118
G1 X103.169 Y115.923 E3.01799
G1 X102.681 Y115.991 E3.04257
G1 X100.6 Y116.201 E3.14692
G1 X99.863 Y116.235 E3.18373
G1 X99.316 Y116.208 E3.21105
G1 X97.861 Y116.079 E3.28393
G1 X97.025 Y115.952 E3.32612
G1 X96.109 Y115.754 E3.37287
G1 X95.345 Y115.542 E3.41243
G1 X94.176 Y115.142 E3.47407
G1 X93.391 Y114.817 E3.51646
G1 X92.325 Y114.296 E3.57565
G1 X91.496 Y113.816 E3.62344
G1 X90.332 Y113.027 E3.6936
G1 X89.544 Y112.403 E3.74375
G1 X88.51 Y111.452 E3.81383
G1 X87.974 Y110.9 E3.85222
G1 X87.481 Y110.331 E3.88978
G1 X87.022 Y109.739 E3.92715
G1 X86.302 Y108.695 E3.99042
G1 X85.803 Y107.845 E4.0396
G1 X85.132 Y106.486 E4.11521
G1 X84.746 Y105.528 E4.16674
G1 X84.341 Y104.249 E4.23367
G1 X84.157 Y103.535 E4.27046
G1 X84.083 Y103.09 E4.29297
G1 X83.826 Y101.152 E4.3905
G1 X83.768 Y100.125 E4.44182
G1 X83.787 Y99.154 E4.49027
G1 X83.856 Y98.315 E4.53227
G1 X84.042 Y97.027 E4.59719
G1 X84.205 Y96.235 E4.63754
G1 X84.432 Y95.39 E4.68119
G1 X84.693 Y94.609 E4.72227
G1 X85.222 Y93.298 E4.7928
G1 X85.651 Y92.422 E4.84146
G1 X86.345 Y91.23 E4.91028
G1 X86.923 Y90.389 E4.96119
G1 X87.798 Y89.301 E5.03085
G1 X88.558 Y88.5 E5.08593
G0 F3600 X88.825 Y88.797
G1 F2400 X90.099 Y87.655 E5.17129
G1 X90.658 Y87.208 E5.207
G1 X90.965 Y87.003 E5.22542
G1 X92.212 Y86.219 E5.2989
G1 X92.998 Y85.798 E5.34339
G1 X94.05 Y85.326 E5.40091
G1 X94.92 Y85.009 E5.44711
G1 X96.436 Y84.578 E5.52574
G1 X97.311 Y84.394 E5.57035
G1 X98.362 Y84.249 E5.62328
G1 X99.123 Y84.19 E5.66136
G1 X100.302 Y84.169 E5.72019
G1 X101.04 Y84.199 E5.75704
G1 X102.111 Y84.304 E5.81073
G1 X102.862 Y84.423 E5.84866
G1 X103.889 Y84.649 E5.90113
G1 X104.703 Y84.885 E5.94341
G1 X106.107 Y85.396 E6.01795
G1 X106.823 Y85.707 E6.0569
G1 X107.565 Y86.085 E6.09844
G1 X108.146 Y86.421 E6.13193
G1 X109.133 Y87.062 E6.19064
G1 X109.846 Y87.599 E6.23517
G1 X110.873 Y88.492 E6.30307
G1 X111.612 Y89.25 E6.35589
G1 X112.754 Y90.635 E6.44544
G1 X113.323 Y91.447 E6.49491
G1 X113.896 Y92.415 E6.55103
G1 X114.243 Y93.088 E6.58881
G1 X114.719 Y94.165 E6.64755
G1 X115.03 Y95.034 E6.6936
G1 X115.429 Y96.466 E6.76777
G1 X115.582 Y97.165 E6.80346
G1 X115.638 Y97.613 E6.82599
G1 X115.813 Y99.565 E6.92377
G1 X115.837 Y100.279 E6.95941
G1 X115.819 Y100.646 E6.97774
G1 X115.729 Y101.771 E7.03404
G1 X115.605 Y102.613 E7.07651
G1 X115.274 Y104.145 E7.1547
G1 X114.989 Y105.098 E7.20433
G1 X114.532 Y106.282 E7.26764
G1 X114.148 Y107.099 E7.31268
G1 X113.506 Y108.248 E7.37835
G1 X112.998 Y109.02 E7.42445
G1 X112.081 Y110.216 E7.49964
G1 X111.42 Y110.953 E7.54903
G1 X110.399 Y111.927 E7.61943
G1 X109.787 Y112.441 E7.6593
G1 X108.976 Y113.041 E7.70963
G1 X108.335 Y113.459 E7.74781
G1 X107.356 Y114.016 E7.80401
G1 X106.733 Y114.327 E7.83875
G1 X105.774 Y114.742 E7.89088
G1 X105.011 Y115.016 E7.93133
G1 X103.777 Y115.373 E7.99541
G1 X103.079 Y115.533 E8.03114
G1 X102.641 Y115.593 E8.0532
G1 X100.56 Y115.803 E8.15755
G1 X99.845 Y115.835 E8.19325
G1 X99.352 Y115.81 E8.21788
G1 X97.897 Y115.681 E8.29076
G1 X97.11 Y115.562 E8.33047
G1 X96.194 Y115.364 E8.37722
G1 X95.474 Y115.163 E8.41451
G1 X94.305 Y114.763 E8.47616
G1 X93.567 Y114.458 E8.516
G1 X92.501 Y113.937 E8.57519
G1 X91.72 Y113.485 E8.62021
G1 X90.556 Y112.696 E8.69037
G1 X89.815 Y112.109 E8.73753
G1 X88.781 Y111.158 E8.80762
G1 X88.276 Y110.638 E8.84378
G1 X87.783 Y110.069 E8.88134
G1 X87.351 Y109.511 E8.91655
G1 X86.631 Y108.467 E8.97982
G1 X86.161 Y107.667 E9.02611
G1 X85.49 Y106.308 E9.10172
G1 X85.128 Y105.407 E9.15017
G1 X84.723 Y104.128 E9.2171
G1 X84.545 Y103.435 E9.25279
G1 X84.48 Y103.037 E9.27291
G1 X84.223 Y101.099 E9.37045
G1 X84.168 Y100.133 E9.41872
G1 X84.187 Y99.162 E9.46717
G1 X84.252 Y98.372 E9.50672
G1 X84.438 Y97.084 E9.57164
G1 X84.591 Y96.339 E9.60959
G1 X84.818 Y95.494 E9.65324
G1 X85.064 Y94.759 E9.69191
G1 X85.593 Y93.448 E9.76244
G1 X85.997 Y92.623 E9.80827
G1 X86.691 Y91.431 E9.87708
G1 X87.235 Y90.64 E9.92498
G1 X88.11 Y89.552 E9.99463
G1 X88.825 Y88.797 E10.04651
G0 F3600 X89.092 Y89.095
G1 F2400 X90.366 Y87.953 E10.13187
G1 X91.177 Y87.341 E10.18256
G1 X92.424 Y86.557 E10.25604
G1 X93.162 Y86.163 E10.29778
G1 X94.214 Y85.691 E10.35531
G1 X95.029 Y85.394 E10.39858
G1 X96.545 Y84.963 E10.47721
G1 X97.366 Y84.79 E10.51907
G1 X98.417 Y84.645 E10.57201
G1 X99.13 Y84.59 E10.60768
G1 X100.309 Y84.569 E10.66651
G1 X101.001 Y84.597 E10.70106
G1 X102.072 Y84.702 E10.75475
G1 X102.776 Y84.813 E10.79031
G1 X103.803 Y85.039 E10.84277
G1 X104.566 Y85.261 E10.88242
G1 X105.97 Y85.772 E10.95696
G1 X106.642 Y86.064 E10.99351
G1 X107.384 Y86.442 E11.03506
G1 X107.928 Y86.756 E11.0664
G1 X108.915 Y87.397 E11.12511
G1 X109.584 Y87.901 E11.1669
G1 X110.611 Y88.794 E11.2348
G1 X111.303 Y89.505 E11.2843
G1 X112.445 Y90.89 E11.37385
G1 X112.979 Y91.651 E11.42023
G1 X113.552 Y92.619 E11.47636
G1 X113.877 Y93.25 E11.51177
G1 X114.353 Y94.327 E11.57051
G1 X114.645 Y95.142 E11.6137
G1 X115.044 Y96.574 E11.68787
G1 X115.191 Y97.25 E11.72238
G1 X115.24 Y97.648 E11.74239
G1 X115.415 Y99.6 E11.84016
G1 X115.42 Y100.614 E11.89075
G1 X115.33 Y101.739 E11.94706
G1 X115.214 Y102.528 E11.98685
G1 X114.883 Y104.06 E12.06504
G1 X114.616 Y104.954 E12.11159
G1 X114.159 Y106.138 E12.17491
G1 X113.799 Y106.904 E12.21713
G1 X113.157 Y108.053 E12.2828
G1 X112.681 Y108.777 E12.32603
G1 X111.764 Y109.973 E12.40121
G1 X111.144 Y110.663 E12.44749
G1 X110.123 Y111.637 E12.51789
G1 X109.55 Y112.119 E12.55525
G1 X108.739 Y112.719 E12.60558
G1 X108.137 Y113.111 E12.64142
G1 X107.158 Y113.668 E12.69761
G1 X106.574 Y113.96 E12.73019
G1 X105.615 Y114.375 E12.78232
G1 X104.899 Y114.632 E12.82027
G1 X103.665 Y114.989 E12.88436
G1 X102.99 Y115.142 E12.91889
G1 X102.6 Y115.195 E12.93853
G1 X100.519 Y115.405 E13.04288
G1 X99.828 Y115.434 E13.07738
G1 X99.387 Y115.412 E13.09941
G1 X97.932 Y115.283 E13.17229
G1 X97.194 Y115.171 E13.20953
G1 X96.278 Y114.973 E13.25628
G1 X95.604 Y114.785 E13.29119
G1 X94.435 Y114.385 E13.35283
G1 X93.742 Y114.099 E13.39024
G1 X92.676 Y113.578 E13.44943
G1 X91.944 Y113.154 E13.49163
G1 X90.78 Y112.365 E13.56179
G1 X90.085 Y111.814 E13.60604
G1 X89.051 Y110.863 E13.67613
G1 X88.578 Y110.376 E13.71
G1 X88.085 Y109.807 E13.74756
G1 X87.681 Y109.284 E13.78053
G1 X86.961 Y108.24 E13.8438
G1 X86.52 Y107.49 E13.88721
G1 X85.849 Y106.131 E13.96282
G1 X85.509 Y105.286 E14.00826
G1 X85.104 Y104.007 E14.07519
G1 X84.933 Y103.336 E14.10974
G1 X84.876 Y102.985 E14.12748
G1 X84.619 Y101.047 E14.22502
G1 X84.568 Y100.141 E14.27029
G1 X84.587 Y99.17 E14.31874
G1 X84.648 Y98.429 E14.35583
G1 X84.834 Y97.141 E14.42076
G1 X84.977 Y96.442 E14.45635
G1 X85.204 Y95.597 E14.50001
G1 X85.435 Y94.909 E14.53621
G1 X85.964 Y93.598 E14.60674
G1 X86.343 Y92.824 E14.64974
G1 X87.037 Y91.632 E14.71855
G1 X87.546 Y90.891 E14.7634
G1 X88.421 Y89.803 E14.83306
G1 X89.092 Y89.095 E14.88173
G0 F3600 X89.359 Y89.393
G1 F2400 X90.633 Y88.251 E14.96708
G1 X91.39 Y87.68 E15.01439
G1 X92.637 Y86.896 E15.08788
G1 X93.326 Y86.528 E15.12685
G1 X94.378 Y86.056 E15.18437
G1 X95.139 Y85.778 E15.22479
G1 X96.655 Y85.347 E15.30342
G1 X97.421 Y85.187 E15.34246
G1 X98.472 Y85.042 E15.3954
G1 X99.137 Y84.99 E15.42867
G1 X100.316 Y84.969 E15.4875
G1 X100.962 Y84.995 E15.51976
G1 X102.033 Y85.1 E15.57345
G1 X102.691 Y85.204 E15.60668
G1 X103.718 Y85.43 E15.65915
G1 X104.429 Y85.637 E15.69609
G1 X105.833 Y86.148 E15.77063
G1 X106.46 Y86.42 E15.80473
G1 X107.202 Y86.798 E15.84627
G1 X107.71 Y87.092 E15.87556
G1 X108.697 Y87.733 E15.93427
G1 X109.321 Y88.203 E15.97325
G1 X110.348 Y89.096 E16.04114
G1 X110.995 Y89.759 E16.08736
G1 X112.137 Y91.144 E16.17692
G1 X112.635 Y91.854 E16.22019
G1 X113.208 Y92.822 E16.27631
G1 X113.511 Y93.411 E16.30935
G1 X113.987 Y94.488 E16.3681
G1 X114.26 Y95.249 E16.40843
G1 X114.659 Y96.681 E16.4826
G1 X114.799 Y97.335 E16.51597
G1 X114.842 Y97.684 E16.53351
G1 X115.017 Y99.636 E16.63129
G1 X115.021 Y100.583 E16.67853
G1 X114.931 Y101.708 E16.73484
G1 X114.823 Y102.444 E16.77195
G1 X114.492 Y103.976 E16.85015
G1 X114.242 Y104.809 E16.89353
G1 X113.785 Y105.993 E16.95685
G1 X113.45 Y106.709 E16.99629
G1 X112.808 Y107.858 E17.06196
G1 X112.363 Y108.533 E17.10229
G1 X111.446 Y109.729 E17.17748
G1 X110.867 Y110.374 E17.22072
G1 X109.846 Y111.348 E17.29112
G1 X109.312 Y111.798 E17.32596
G1 X108.501 Y112.398 E17.37629
G1 X107.939 Y112.763 E17.40972
G1 X106.96 Y113.32 E17.46592
G1 X106.415 Y113.592 E17.49631
G1 X105.456 Y114.007 E17.54844
G1 X104.788 Y114.247 E17.58385
G1 X103.554 Y114.604 E17.64794
G1 X102.902 Y114.752 E17.6813
G1 X102.56 Y114.797 E17.69851
G1 X100.479 Y115.007 E17.80285
G1 X99.811 Y115.034 E17.83621
G1 X99.422 Y115.013 E17.85564
G1 X97.967 Y114.884 E17.92852
G1 X97.279 Y114.78 E17.96323
G1 X96.363 Y114.582 E18.00999
G1 X95.733 Y114.406 E18.04262
G1 X94.564 Y114.006 E18.10426
G1 X93.918 Y113.739 E18.13914
G1 X92.852 Y113.218 E18.19833
G1 X92.169 Y112.822 E18.23772
G1 X91.005 Y112.033 E18.30788
G1 X90.356 Y111.52 E18.34915
G1 X89.322 Y110.569 E18.41924
G1 X88.881 Y110.114 E18.45085
G1 X88.388 Y109.545 E18.48841
G1 X88.01 Y109.057 E18.51921
G1 X87.29 Y108.013 E18.58248
G1 X86.879 Y107.313 E18.62297
G1 X86.208 Y105.954 E18.69859
G1 X85.89 Y105.166 E18.74098
G1 X85.485 Y103.887 E18.80792
G1 X85.273 Y102.932 E18.85672
G1 X85.016 Y100.994 E18.95425
G1 X84.968 Y100.148 E18.99653
G1 X84.987 Y99.177 E19.04498
G1 X85.043 Y98.487 E19.07952
G1 X85.229 Y97.199 E19.14444
G1 X85.364 Y96.546 E19.17771
G1 X85.591 Y95.701 E19.22136
G1 X85.806 Y95.059 E19.25514
G1 X86.335 Y93.748 E19.32567
G1 X86.688 Y93.025 E19.36581
G1 X87.382 Y91.833 E19.43463
G1 X87.858 Y91.141 E19.47653
G1 X88.733 Y90.053 E19.54619
G1 X89.359 Y89.393 E19.59157
G0 F3600 X89.626 Y89.691
G1 F2400 X90.9 Y88.549 E19.67693
G1 X91.603 Y88.019 E19.72085
G1 X92.85 Y87.235 E19.79434
G1 X93.489 Y86.893 E19.8305
G1 X94.541 Y86.421 E19.88802
G1 X95.248 Y86.163 E19.92557
G1 X96.764 Y85.732 E20.0042
G1 X97.475 Y85.583 E20.04044
G1 X98.526 Y85.438 E20.09337
G1 X99.144 Y85.39 E20.1243
G1 X100.323 Y85.369 E20.18313
G1 X100.923 Y85.393 E20.21309
G1 X101.994 Y85.498 E20.26677
G1 X102.605 Y85.595 E20.29764
G1 X103.632 Y85.821 E20.3501
G1 X104.292 Y86.013 E20.38439
G1 X105.696 Y86.524 E20.45894
G1 X106.278 Y86.777 E20.4906
G1 X107.02 Y87.155 E20.53214
G1 X107.492 Y87.427 E20.55932
G1 X108.479 Y88.068 E20.61804
G1 X109.059 Y88.505 E20.65427
G1 X110.086 Y89.398 E20.72216
G1 X110.686 Y90.014 E20.76507
G1 X111.828 Y91.399 E20.85462
G1 X112.291 Y92.058 E20.8948
G1 X112.864 Y93.026 E20.95092
G1 X113.145 Y93.573 E20.9816
G1 X113.621 Y94.65 E21.04035
G1 X113.874 Y95.356 E21.07777
G1 X114.273 Y96.788 E21.15193
G1 X114.443 Y97.72 E21.1992
G1 X114.618 Y99.672 E21.29697
G1 X114.622 Y100.551 E21.34083
G1 X114.532 Y101.676 E21.39713
G1 X114.432 Y102.359 E21.43157
G1 X114.101 Y103.891 E21.50976
G1 X113.869 Y104.665 E21.55008
G1 X113.412 Y105.849 E21.61339
G1 X113.1 Y106.513 E21.65
G1 X112.458 Y107.662 E21.71566
G1 X112.046 Y108.29 E21.75313
G1 X111.129 Y109.486 E21.82832
G1 X110.591 Y110.085 E21.86849
G1 X109.57 Y111.059 E21.93889
G1 X109.074 Y111.476 E21.97122
G1 X108.263 Y112.076 E22.02155
G1 X107.741 Y112.416 E22.05263
G1 X106.762 Y112.973 E22.10882
G1 X106.256 Y113.225 E22.13702
G1 X105.297 Y113.64 E22.18916
G1 X104.677 Y113.863 E22.22203
G1 X103.443 Y114.22 E22.28612
G1 X102.52 Y114.399 E22.33302
G1 X100.439 Y114.609 E22.43737
G1 X99.795 Y114.634 E22.46953
G1 X99.458 Y114.615 E22.48637
G1 X98.003 Y114.486 E22.55924
G1 X97.363 Y114.389 E22.59154
G1 X96.447 Y114.191 E22.63829
G1 X95.863 Y114.028 E22.66854
G1 X94.694 Y113.628 E22.73018
G1 X94.094 Y113.38 E22.76257
G1 X93.028 Y112.859 E22.82177
G1 X92.393 Y112.491 E22.85838
G1 X91.229 Y111.702 E22.92854
G1 X90.627 Y111.225 E22.96686
G1 X89.593 Y110.274 E23.03695
G1 X89.183 Y109.852 E23.0663
G1 X88.69 Y109.283 E23.10386
G1 X88.339 Y108.83 E23.13245
G1 X87.619 Y107.786 E23.19572
G1 X87.237 Y107.136 E23.23334
G1 X86.566 Y105.777 E23.30895
G1 X86.272 Y105.045 E23.34831
G1 X85.867 Y103.766 E23.41524
G1 X85.669 Y102.88 E23.46053
G1 X85.412 Y100.942 E23.55806
G1 X85.368 Y100.156 E23.59734
G1 X85.387 Y99.185 E23.64579
G1 X85.439 Y98.544 E23.67788
G1 X85.625 Y97.256 E23.7428
G1 X85.75 Y96.65 E23.77367
G1 X85.977 Y95.805 E23.81732
G1 X86.177 Y95.208 E23.84874
G1 X86.706 Y93.897 E23.91927
G1 X87.034 Y93.227 E23.95648
G1 X87.728 Y92.035 E24.0253
G1 X88.17 Y91.392 E24.06422
G1 X89.045 Y90.304 E24.13388
G1 X89.626 Y89.691 E24.17602
G0 F3600 X89.893 Y89.989
G1 F2400 X91.167 Y88.847 E24.26138
G1 X91.816 Y88.357 E24.30195
G1 X93.063 Y87.573 E24.37543
G1 X93.653 Y87.258 E24.4088
G1 X94.705 Y86.786 E24.46633
G1 X95.357 Y86.548 E24.50095
G1 X96.873 Y86.117 E24.57959
G1 X97.53 Y85.979 E24.61308
G1 X98.581 Y85.834 E24.66601
G1 X99.152 Y85.79 E24.69458
G1 X100.331 Y85.769 E24.75341
G1 X100.884 Y85.791 E24.78102
G1 X101.955 Y85.896 E24.83471
G1 X102.519 Y85.985 E24.8632
G1 X103.546 Y86.211 E24.91566
G1 X104.156 Y86.388 E24.94735
G1 X105.56 Y86.899 E25.02189
G1 X106.097 Y87.133 E25.05111
G1 X106.839 Y87.511 E25.09266
G1 X107.274 Y87.762 E25.11772
G1 X108.261 Y88.403 E25.17643
G1 X108.797 Y88.807 E25.20992
G1 X109.824 Y89.7 E25.27781
G1 X110.377 Y90.268 E25.31736
G1 X111.519 Y91.653 E25.40692
G1 X111.947 Y92.262 E25.44406
G1 X112.52 Y93.23 E25.50018
G1 X112.779 Y93.735 E25.52849
G1 X113.255 Y94.812 E25.58724
G1 X113.489 Y95.464 E25.6218
G1 X113.888 Y96.896 E25.69596
G1 X114.045 Y97.755 E25.73953
G1 X114.22 Y99.707 E25.83731
G1 X114.224 Y100.519 E25.87782
G1 X114.134 Y101.644 E25.93412
G1 X114.041 Y102.275 E25.96594
G1 X113.71 Y103.807 E26.04414
G1 X113.496 Y104.521 E26.08133
G1 X113.039 Y105.705 E26.14464
G1 X112.751 Y106.318 E26.17843
G1 X112.109 Y107.467 E26.2441
G1 X111.728 Y108.047 E26.27872
G1 X110.811 Y109.243 E26.35391
G1 X110.315 Y109.795 E26.39093
G1 X109.294 Y110.769 E26.46133
G1 X108.836 Y111.155 E26.49121
